(.../Documents/pcbgcode/pcb-gcode.ulp)
(Copyright 2005 - 2012 by John Johnson)
(See readme.txt for licensing terms.)
(This file generated from the board:)
(.../RJ12 breakout/rj12 breakout.brd)
(Current profile is .../pcbgcode/profiles/generic.pp  )
(This file generated 17/06/2018 17:16)
(Settings from pcb-machine.h)
(spindle on time = 3.0000)
(  Tool Size)
(0.1250 )
(spindle speed = 30000.0000)
(tool change at 0.0000 0.0000 40.0000 )
(feed rate xy = F400.00 )
(feed rate z  = F300.00 )
(Z Axis Settings)
(  High     Up        Down     Drill)
(25.0000 	5.0000 	-0.0800 	-1.7500 )
(Settings from pcb-defaults.h)
(isolate min = 0.1000)
(isolate max = 0.5000)
(isolate step = 0.0500)
(Generated bottom outlines, bottom drill, )
(Unit of measure: mm)
(Metric Mode)
G21
(Absolute Coordinates)
G90
S30000
G00 Z25.0000 
G00 X0.0000 Y0.0000 
M03
G04 P3.000000
G00 Z5.0000 
G00 X-3.3548 Y0.9207 
G01 Z-0.0800 F300.00 
G01 X-3.2799 Y1.0504 F400.00 
G01 X-3.2411 Y1.1951 
G01 X-3.2411 Y8.7049 
G01 X-3.2799 Y8.8496 
G01 X-3.3548 Y8.9793 
G01 X-3.4607 Y9.0852 
G01 X-3.5904 Y9.1601 
G01 X-3.7351 Y9.1989 
G01 X-8.3377 Y9.1989 
G01 X-8.3462 Y9.2117 
G01 X-8.4733 Y9.3388 
G01 X-8.6228 Y9.4386 
G01 X-8.7888 Y9.5074 
G01 X-8.9651 Y9.5425 
G01 X-9.1449 Y9.5425 
G01 X-9.3212 Y9.5074 
G01 X-9.4872 Y9.4386 
G01 X-9.6367 Y9.3388 
G01 X-9.7638 Y9.2117 
G01 X-9.8636 Y9.0622 
G01 X-9.9324 Y8.8962 
G01 X-9.9675 Y8.7199 
G01 X-9.9675 Y8.5401 
G01 X-9.9324 Y8.3638 
G01 X-9.8636 Y8.1978 
G01 X-9.7638 Y8.0483 
G01 X-9.6367 Y7.9212 
G01 X-9.4872 Y7.8214 
G01 X-9.3212 Y7.7526 
G01 X-9.1449 Y7.7175 
G01 X-8.9651 Y7.7175 
G01 X-8.7888 Y7.7526 
G01 X-8.6228 Y7.8214 
G01 X-8.4733 Y7.9212 
G01 X-8.3462 Y8.0483 
G01 X-8.3377 Y8.0611 
G01 X-4.3789 Y8.0611 
G01 X-4.3789 Y1.8389 
G01 X-22.2911 Y1.8389 
G01 X-22.2911 Y5.7811 
G01 X-21.1281 Y5.7811 
G01 X-21.0874 Y5.7202 
G01 X-20.9498 Y5.5826 
G01 X-20.7880 Y5.4744 
G01 X-20.6082 Y5.4000 
G01 X-20.4173 Y5.3620 
G01 X-20.2227 Y5.3620 
G01 X-20.0318 Y5.4000 
G01 X-19.8520 Y5.4744 
G01 X-19.6902 Y5.5826 
G01 X-19.5526 Y5.7202 
G01 X-19.4444 Y5.8820 
G01 X-19.3700 Y6.0618 
G01 X-19.3320 Y6.2527 
G01 X-19.3320 Y6.4473 
G01 X-19.3700 Y6.6382 
G01 X-19.4444 Y6.8180 
G01 X-19.5526 Y6.9798 
G01 X-19.6902 Y7.1174 
G01 X-19.8520 Y7.2256 
G01 X-20.0318 Y7.3000 
G01 X-20.2227 Y7.3380 
G01 X-20.4173 Y7.3380 
G01 X-20.6082 Y7.3000 
G01 X-20.7880 Y7.2256 
G01 X-20.9498 Y7.1174 
G01 X-21.0874 Y6.9798 
G01 X-21.1281 Y6.9189 
G01 X-22.9349 Y6.9189 
G01 X-23.0796 Y6.8801 
G01 X-23.2093 Y6.8052 
G01 X-23.3152 Y6.6993 
G01 X-23.3901 Y6.5696 
G01 X-23.4289 Y6.4249 
G01 X-23.4289 Y1.1951 
G01 X-23.3901 Y1.0504 
G01 X-23.3152 Y0.9207 
G01 X-23.2093 Y0.8148 
G01 X-23.0796 Y0.7399 
G01 X-22.9349 Y0.7011 
G01 X-3.7351 Y0.7011 
G01 X-3.5904 Y0.7399 
G01 X-3.4607 Y0.8148 
G01 X-3.3548 Y0.9207 
G00 Z5.0000 
G00 X-3.3548 Y10.4457 
G01 Z-0.0800 F300.00 
G01 X-3.2799 Y10.5754 F400.00 
G01 X-3.2411 Y10.7201 
G01 X-3.2411 Y19.1249 
G01 X-3.2799 Y19.2696 
G01 X-3.3548 Y19.3993 
G01 X-3.4607 Y19.5052 
G01 X-3.5904 Y19.5801 
G01 X-3.7351 Y19.6189 
G01 X-22.9349 Y19.6189 
G01 X-23.0796 Y19.5801 
G01 X-23.2093 Y19.5052 
G01 X-23.3152 Y19.3993 
G01 X-23.3901 Y19.2696 
G01 X-23.4289 Y19.1249 
G01 X-23.4289 Y11.3551 
G01 X-23.3901 Y11.2104 
G01 X-23.3152 Y11.0807 
G01 X-23.2093 Y10.9748 
G01 X-23.0796 Y10.8999 
G01 X-22.9349 Y10.8611 
G01 X-21.1281 Y10.8611 
G01 X-21.0874 Y10.8002 
G01 X-20.9498 Y10.6626 
G01 X-20.7880 Y10.5544 
G01 X-20.6082 Y10.4800 
G01 X-20.4173 Y10.4420 
G01 X-20.2227 Y10.4420 
G01 X-20.0318 Y10.4800 
G01 X-19.8520 Y10.5544 
G01 X-19.6902 Y10.6626 
G01 X-19.5526 Y10.8002 
G01 X-19.4444 Y10.9620 
G01 X-19.3700 Y11.1418 
G01 X-19.3320 Y11.3327 
G01 X-19.3320 Y11.5273 
G01 X-19.3700 Y11.7182 
G01 X-19.4444 Y11.8980 
G01 X-19.5526 Y12.0598 
G01 X-19.6902 Y12.1974 
G01 X-19.8520 Y12.3056 
G01 X-20.0318 Y12.3800 
G01 X-20.2227 Y12.4180 
G01 X-20.4173 Y12.4180 
G01 X-20.6082 Y12.3800 
G01 X-20.7880 Y12.3056 
G01 X-20.9498 Y12.1974 
G01 X-21.0874 Y12.0598 
G01 X-21.1281 Y11.9989 
G01 X-22.2911 Y11.9989 
G01 X-22.2911 Y18.4811 
G01 X-4.3789 Y18.4811 
G01 X-4.3789 Y11.3639 
G01 X-8.4584 Y11.3639 
G01 X-8.4733 Y11.3788 
G01 X-8.6228 Y11.4786 
G01 X-8.7888 Y11.5474 
G01 X-8.9651 Y11.5825 
G01 X-9.1449 Y11.5825 
G01 X-9.3212 Y11.5474 
G01 X-9.4872 Y11.4786 
G01 X-9.6367 Y11.3788 
G01 X-9.7638 Y11.2517 
G01 X-9.8636 Y11.1022 
G01 X-9.9324 Y10.9362 
G01 X-9.9675 Y10.7599 
G01 X-9.9675 Y10.5801 
G01 X-9.9324 Y10.4038 
G01 X-9.8636 Y10.2378 
G01 X-9.7638 Y10.0883 
G01 X-9.6367 Y9.9612 
G01 X-9.4872 Y9.8614 
G01 X-9.3212 Y9.7926 
G01 X-9.1449 Y9.7575 
G01 X-8.9651 Y9.7575 
G01 X-8.7888 Y9.7926 
G01 X-8.6228 Y9.8614 
G01 X-8.4733 Y9.9612 
G01 X-8.3462 Y10.0883 
G01 X-8.2542 Y10.2261 
G01 X-3.7351 Y10.2261 
G01 X-3.5904 Y10.2649 
G01 X-3.4607 Y10.3398 
G01 X-3.3548 Y10.4457 
G00 Z5.0000 
G00 X-8.3462 Y12.1283 
G01 Z-0.0800 F300.00 
G01 X-8.2464 Y12.2778 F400.00 
G01 X-8.1776 Y12.4438 
G01 X-8.1425 Y12.6201 
G01 X-8.1425 Y12.7999 
G01 X-8.1776 Y12.9762 
G01 X-8.2464 Y13.1422 
G01 X-8.3462 Y13.2917 
G01 X-8.4733 Y13.4188 
G01 X-8.4861 Y13.4273 
G01 X-8.4861 Y14.0449 
G01 X-8.5249 Y14.1896 
G01 X-8.5998 Y14.3193 
G01 X-8.7057 Y14.4252 
G01 X-8.8354 Y14.5001 
G01 X-8.9801 Y14.5389 
G01 X-9.5911 Y14.5389 
G01 X-9.5911 Y16.5849 
G01 X-9.6299 Y16.7296 
G01 X-9.7048 Y16.8593 
G01 X-9.8107 Y16.9652 
G01 X-9.9404 Y17.0401 
G01 X-10.0851 Y17.0789 
G01 X-19.3320 Y17.0789 
G01 X-19.3320 Y17.3678 
G01 X-19.3567 Y17.4275 
G01 X-19.4025 Y17.4733 
G01 X-19.4622 Y17.4980 
G01 X-21.1778 Y17.4980 
G01 X-21.2375 Y17.4733 
G01 X-21.2833 Y17.4275 
G01 X-21.3080 Y17.3678 
G01 X-21.3080 Y15.6522 
G01 X-21.2833 Y15.5925 
G01 X-21.2375 Y15.5467 
G01 X-21.1778 Y15.5220 
G01 X-19.4622 Y15.5220 
G01 X-19.4025 Y15.5467 
G01 X-19.3567 Y15.5925 
G01 X-19.3320 Y15.6522 
G01 X-19.3320 Y15.9411 
G01 X-10.7289 Y15.9411 
G01 X-10.7289 Y13.8951 
G01 X-10.6901 Y13.7504 
G01 X-10.6152 Y13.6207 
G01 X-10.5093 Y13.5148 
G01 X-10.3796 Y13.4399 
G01 X-10.2349 Y13.4011 
G01 X-9.6544 Y13.4011 
G01 X-9.7638 Y13.2917 
G01 X-9.8636 Y13.1422 
G01 X-9.9324 Y12.9762 
G01 X-9.9675 Y12.7999 
G01 X-9.9675 Y12.6201 
G01 X-9.9324 Y12.4438 
G01 X-9.8636 Y12.2778 
G01 X-9.7638 Y12.1283 
G01 X-9.6367 Y12.0012 
G01 X-9.4872 Y11.9014 
G01 X-9.3212 Y11.8326 
G01 X-9.1449 Y11.7975 
G01 X-8.9651 Y11.7975 
G01 X-8.7888 Y11.8326 
G01 X-8.6228 Y11.9014 
G01 X-8.4733 Y12.0012 
G01 X-8.3462 Y12.1283 
G00 Z5.0000 
G00 X-10.7864 Y12.1222 
G01 Z-0.0800 F300.00 
G01 X-10.8611 Y12.2341 F400.00 
G01 X-10.8611 Y12.7749 
G01 X-10.8999 Y12.9196 
G01 X-10.9748 Y13.0493 
G01 X-11.0807 Y13.1552 
G01 X-11.2104 Y13.2301 
G01 X-11.3551 Y13.2689 
G01 X-13.4011 Y13.2689 
G01 X-13.4011 Y14.0449 
G01 X-13.4399 Y14.1896 
G01 X-13.5148 Y14.3193 
G01 X-13.6207 Y14.4252 
G01 X-13.7504 Y14.5001 
G01 X-13.8951 Y14.5389 
G01 X-19.5119 Y14.5389 
G01 X-19.5526 Y14.5998 
G01 X-19.6902 Y14.7374 
G01 X-19.8520 Y14.8456 
G01 X-20.0318 Y14.9200 
G01 X-20.2227 Y14.9580 
G01 X-20.4173 Y14.9580 
G01 X-20.6082 Y14.9200 
G01 X-20.7880 Y14.8456 
G01 X-20.9498 Y14.7374 
G01 X-21.0874 Y14.5998 
G01 X-21.1956 Y14.4380 
G01 X-21.2700 Y14.2582 
G01 X-21.3080 Y14.0673 
G01 X-21.3080 Y13.8727 
G01 X-21.2700 Y13.6818 
G01 X-21.1956 Y13.5020 
G01 X-21.0874 Y13.3402 
G01 X-20.9498 Y13.2026 
G01 X-20.7880 Y13.0944 
G01 X-20.6082 Y13.0200 
G01 X-20.4173 Y12.9820 
G01 X-20.2227 Y12.9820 
G01 X-20.0318 Y13.0200 
G01 X-19.8520 Y13.0944 
G01 X-19.6902 Y13.2026 
G01 X-19.5526 Y13.3402 
G01 X-19.5119 Y13.4011 
G01 X-14.5389 Y13.4011 
G01 X-14.5389 Y12.6251 
G01 X-14.5001 Y12.4804 
G01 X-14.4252 Y12.3507 
G01 X-14.3193 Y12.2448 
G01 X-14.1896 Y12.1699 
G01 X-14.0449 Y12.1311 
G01 X-12.3977 Y12.1311 
G01 X-12.4036 Y12.1222 
G01 X-12.4724 Y11.9562 
G01 X-12.5075 Y11.7799 
G01 X-12.5075 Y11.6001 
G01 X-12.4724 Y11.4238 
G01 X-12.4036 Y11.2578 
G01 X-12.3038 Y11.1083 
G01 X-12.1767 Y10.9812 
G01 X-12.0272 Y10.8814 
G01 X-11.8612 Y10.8126 
G01 X-11.6849 Y10.7775 
G01 X-11.5051 Y10.7775 
G01 X-11.3288 Y10.8126 
G01 X-11.1628 Y10.8814 
G01 X-11.0133 Y10.9812 
G01 X-10.8862 Y11.1083 
G01 X-10.7864 Y11.2578 
G01 X-10.7176 Y11.4238 
G01 X-10.6825 Y11.6001 
G01 X-10.6825 Y11.7799 
G01 X-10.7176 Y11.9562 
G01 X-10.7864 Y12.1222 
G00 Z5.0000 
G00 X-11.0133 Y10.3588 
G01 Z-0.0800 F300.00 
G01 X-11.1628 Y10.4586 F400.00 
G01 X-11.3288 Y10.5274 
G01 X-11.5051 Y10.5625 
G01 X-11.6849 Y10.5625 
G01 X-11.8612 Y10.5274 
G01 X-12.0272 Y10.4586 
G01 X-12.1767 Y10.3588 
G01 X-12.3038 Y10.2317 
G01 X-12.3123 Y10.2189 
G01 X-14.0449 Y10.2189 
G01 X-14.1896 Y10.1801 
G01 X-14.3193 Y10.1052 
G01 X-14.4252 Y9.9993 
G01 X-14.5001 Y9.8696 
G01 X-14.5389 Y9.7249 
G01 X-14.5389 Y9.4589 
G01 X-19.5119 Y9.4589 
G01 X-19.5526 Y9.5198 
G01 X-19.6902 Y9.6574 
G01 X-19.8520 Y9.7656 
G01 X-20.0318 Y9.8400 
G01 X-20.2227 Y9.8780 
G01 X-20.4173 Y9.8780 
G01 X-20.6082 Y9.8400 
G01 X-20.7880 Y9.7656 
G01 X-20.9498 Y9.6574 
G01 X-21.0874 Y9.5198 
G01 X-21.1956 Y9.3580 
G01 X-21.2700 Y9.1782 
G01 X-21.3080 Y8.9873 
G01 X-21.3080 Y8.7927 
G01 X-21.2700 Y8.6018 
G01 X-21.1956 Y8.4220 
G01 X-21.0874 Y8.2602 
G01 X-20.9498 Y8.1226 
G01 X-20.7880 Y8.0144 
G01 X-20.6082 Y7.9400 
G01 X-20.4173 Y7.9020 
G01 X-20.2227 Y7.9020 
G01 X-20.0318 Y7.9400 
G01 X-19.8520 Y8.0144 
G01 X-19.6902 Y8.1226 
G01 X-19.5526 Y8.2602 
G01 X-19.5119 Y8.3211 
G01 X-13.8951 Y8.3211 
G01 X-13.7504 Y8.3599 
G01 X-13.6207 Y8.4348 
G01 X-13.5148 Y8.5407 
G01 X-13.4399 Y8.6704 
G01 X-13.4011 Y8.8151 
G01 X-13.4011 Y9.0811 
G01 X-12.3123 Y9.0811 
G01 X-12.3038 Y9.0683 
G01 X-12.1767 Y8.9412 
G01 X-12.0272 Y8.8414 
G01 X-11.8612 Y8.7726 
G01 X-11.6849 Y8.7375 
G01 X-11.5051 Y8.7375 
G01 X-11.3288 Y8.7726 
G01 X-11.1628 Y8.8414 
G01 X-11.0133 Y8.9412 
G01 X-10.8862 Y9.0683 
G01 X-10.7864 Y9.2178 
G01 X-10.7176 Y9.3838 
G01 X-10.6825 Y9.5601 
G01 X-10.6825 Y9.7399 
G01 X-10.7176 Y9.9162 
G01 X-10.7864 Y10.0822 
G01 X-10.8862 Y10.2317 
G01 X-11.0133 Y10.3588 
G00 Z5.0000 
G00 X-11.0133 Y8.3188 
G01 Z-0.0800 F300.00 
G01 X-11.1628 Y8.4186 F400.00 
G01 X-11.3288 Y8.4874 
G01 X-11.5051 Y8.5225 
G01 X-11.6849 Y8.5225 
G01 X-11.8612 Y8.4874 
G01 X-12.0272 Y8.4186 
G01 X-12.1767 Y8.3188 
G01 X-12.3038 Y8.1917 
G01 X-12.4036 Y8.0422 
G01 X-12.4724 Y7.8762 
G01 X-12.5075 Y7.6999 
G01 X-12.5075 Y7.5201 
G01 X-12.4724 Y7.3438 
G01 X-12.4036 Y7.1778 
G01 X-12.3038 Y7.0283 
G01 X-12.1767 Y6.9012 
G01 X-12.0272 Y6.8014 
G01 X-11.9989 Y6.7896 
G01 X-11.9989 Y5.6489 
G01 X-14.0449 Y5.6489 
G01 X-14.1896 Y5.6101 
G01 X-14.3193 Y5.5352 
G01 X-14.4252 Y5.4293 
G01 X-14.5001 Y5.2996 
G01 X-14.5389 Y5.1549 
G01 X-14.5389 Y4.3789 
G01 X-19.5119 Y4.3789 
G01 X-19.5526 Y4.4398 
G01 X-19.6902 Y4.5774 
G01 X-19.8520 Y4.6856 
G01 X-20.0318 Y4.7600 
G01 X-20.2227 Y4.7980 
G01 X-20.4173 Y4.7980 
G01 X-20.6082 Y4.7600 
G01 X-20.7880 Y4.6856 
G01 X-20.9498 Y4.5774 
G01 X-21.0874 Y4.4398 
G01 X-21.1956 Y4.2780 
G01 X-21.2700 Y4.0982 
G01 X-21.3080 Y3.9073 
G01 X-21.3080 Y3.7127 
G01 X-21.2700 Y3.5218 
G01 X-21.1956 Y3.3420 
G01 X-21.0874 Y3.1802 
G01 X-20.9498 Y3.0426 
G01 X-20.7880 Y2.9344 
G01 X-20.6082 Y2.8600 
G01 X-20.4173 Y2.8220 
G01 X-20.2227 Y2.8220 
G01 X-20.0318 Y2.8600 
G01 X-19.8520 Y2.9344 
G01 X-19.6902 Y3.0426 
G01 X-19.5526 Y3.1802 
G01 X-19.5119 Y3.2411 
G01 X-13.8951 Y3.2411 
G01 X-13.7504 Y3.2799 
G01 X-13.6207 Y3.3548 
G01 X-13.5148 Y3.4607 
G01 X-13.4399 Y3.5904 
G01 X-13.4011 Y3.7351 
G01 X-13.4011 Y4.5111 
G01 X-11.3551 Y4.5111 
G01 X-11.2104 Y4.5499 
G01 X-11.0807 Y4.6248 
G01 X-10.9748 Y4.7307 
G01 X-10.8999 Y4.8604 
G01 X-10.8611 Y5.0051 
G01 X-10.8611 Y7.0659 
G01 X-10.7864 Y7.1778 
G01 X-10.7176 Y7.3438 
G01 X-10.6825 Y7.5201 
G01 X-10.6825 Y7.6999 
G01 X-10.7176 Y7.8762 
G01 X-10.7864 Y8.0422 
G01 X-10.8862 Y8.1917 
G01 X-11.0133 Y8.3188 
G00 Z5.0000 
G00 X-3.3293 Y0.8755 
G01 Z-0.0800 F300.00 
G01 X-3.2615 Y0.9768 F400.00 
G01 X-3.2149 Y1.0895 
G01 X-3.1911 Y1.2090 
G01 X-3.1911 Y8.6910 
G01 X-3.2149 Y8.8105 
G01 X-3.2615 Y8.9232 
G01 X-3.3293 Y9.0245 
G01 X-3.4155 Y9.1107 
G01 X-3.5168 Y9.1785 
G01 X-3.6295 Y9.2251 
G01 X-3.7490 Y9.2489 
G01 X-8.3127 Y9.2489 
G01 X-8.4414 Y9.3776 
G01 X-8.5991 Y9.4830 
G01 X-8.7742 Y9.5555 
G01 X-8.9602 Y9.5925 
G01 X-9.1498 Y9.5925 
G01 X-9.3358 Y9.5555 
G01 X-9.5109 Y9.4830 
G01 X-9.6686 Y9.3776 
G01 X-9.8026 Y9.2436 
G01 X-9.9080 Y9.0859 
G01 X-9.9805 Y8.9108 
G01 X-10.0175 Y8.7248 
G01 X-10.0175 Y8.5352 
G01 X-9.9805 Y8.3492 
G01 X-9.9080 Y8.1741 
G01 X-9.8026 Y8.0164 
G01 X-9.6686 Y7.8824 
G01 X-9.5109 Y7.7770 
G01 X-9.3358 Y7.7045 
G01 X-9.1498 Y7.6675 
G01 X-8.9602 Y7.6675 
G01 X-8.7742 Y7.7045 
G01 X-8.5991 Y7.7770 
G01 X-8.4414 Y7.8824 
G01 X-8.3127 Y8.0111 
G01 X-4.4289 Y8.0111 
G01 X-4.4289 Y1.8889 
G01 X-22.2411 Y1.8889 
G01 X-22.2411 Y5.7311 
G01 X-21.1534 Y5.7311 
G01 X-21.1117 Y5.6738 
G01 X-20.9962 Y5.5583 
G01 X-20.8640 Y5.4622 
G01 X-20.7185 Y5.3880 
G01 X-20.5631 Y5.3376 
G01 X-20.4017 Y5.3120 
G01 X-20.2383 Y5.3120 
G01 X-20.0769 Y5.3376 
G01 X-19.9215 Y5.3880 
G01 X-19.7760 Y5.4622 
G01 X-19.6438 Y5.5583 
G01 X-19.5283 Y5.6738 
G01 X-19.4322 Y5.8060 
G01 X-19.3580 Y5.9515 
G01 X-19.3076 Y6.1069 
G01 X-19.2820 Y6.2683 
G01 X-19.2820 Y6.4317 
G01 X-19.3076 Y6.5931 
G01 X-19.3580 Y6.7485 
G01 X-19.4322 Y6.8940 
G01 X-19.5283 Y7.0262 
G01 X-19.6438 Y7.1417 
G01 X-19.7760 Y7.2378 
G01 X-19.9215 Y7.3120 
G01 X-20.0769 Y7.3624 
G01 X-20.2383 Y7.3880 
G01 X-20.4017 Y7.3880 
G01 X-20.5631 Y7.3624 
G01 X-20.7185 Y7.3120 
G01 X-20.8640 Y7.2378 
G01 X-20.9962 Y7.1417 
G01 X-21.1117 Y7.0262 
G01 X-21.1534 Y6.9689 
G01 X-22.9210 Y6.9689 
G01 X-23.0405 Y6.9451 
G01 X-23.1532 Y6.8985 
G01 X-23.2545 Y6.8307 
G01 X-23.3407 Y6.7445 
G01 X-23.4085 Y6.6432 
G01 X-23.4551 Y6.5305 
G01 X-23.4789 Y6.4110 
G01 X-23.4789 Y1.2090 
G01 X-23.4551 Y1.0895 
G01 X-23.4085 Y0.9768 
G01 X-23.3407 Y0.8755 
G01 X-23.2545 Y0.7893 
G01 X-23.1532 Y0.7215 
G01 X-23.0405 Y0.6749 
G01 X-22.9210 Y0.6511 
G01 X-3.7490 Y0.6511 
G01 X-3.6295 Y0.6749 
G01 X-3.5168 Y0.7215 
G01 X-3.4155 Y0.7893 
G01 X-3.3293 Y0.8755 
G00 Z5.0000 
G00 X-3.3293 Y10.4005 
G01 Z-0.0800 F300.00 
G01 X-3.2615 Y10.5018 F400.00 
G01 X-3.2149 Y10.6145 
G01 X-3.1911 Y10.7340 
G01 X-3.1911 Y19.1110 
G01 X-3.2149 Y19.2305 
G01 X-3.2615 Y19.3432 
G01 X-3.3293 Y19.4445 
G01 X-3.4155 Y19.5307 
G01 X-3.5168 Y19.5985 
G01 X-3.6295 Y19.6451 
G01 X-3.7490 Y19.6689 
G01 X-22.9210 Y19.6689 
G01 X-23.0405 Y19.6451 
G01 X-23.1532 Y19.5985 
G01 X-23.2545 Y19.5307 
G01 X-23.3407 Y19.4445 
G01 X-23.4085 Y19.3432 
G01 X-23.4551 Y19.2305 
G01 X-23.4789 Y19.1110 
G01 X-23.4789 Y11.3690 
G01 X-23.4551 Y11.2495 
G01 X-23.4085 Y11.1368 
G01 X-23.3407 Y11.0355 
G01 X-23.2545 Y10.9493 
G01 X-23.1532 Y10.8815 
G01 X-23.0405 Y10.8349 
G01 X-22.9210 Y10.8111 
G01 X-21.1534 Y10.8111 
G01 X-21.1117 Y10.7538 
G01 X-20.9962 Y10.6383 
G01 X-20.8640 Y10.5422 
G01 X-20.7185 Y10.4680 
G01 X-20.5631 Y10.4176 
G01 X-20.4017 Y10.3920 
G01 X-20.2383 Y10.3920 
G01 X-20.0769 Y10.4176 
G01 X-19.9215 Y10.4680 
G01 X-19.7760 Y10.5422 
G01 X-19.6438 Y10.6383 
G01 X-19.5283 Y10.7538 
G01 X-19.4322 Y10.8860 
G01 X-19.3580 Y11.0315 
G01 X-19.3076 Y11.1869 
G01 X-19.2820 Y11.3483 
G01 X-19.2820 Y11.5117 
G01 X-19.3076 Y11.6731 
G01 X-19.3580 Y11.8285 
G01 X-19.4322 Y11.9740 
G01 X-19.5283 Y12.1062 
G01 X-19.6438 Y12.2217 
G01 X-19.7760 Y12.3178 
G01 X-19.9215 Y12.3920 
G01 X-20.0769 Y12.4424 
G01 X-20.2383 Y12.4680 
G01 X-20.4017 Y12.4680 
G01 X-20.5631 Y12.4424 
G01 X-20.7185 Y12.3920 
G01 X-20.8640 Y12.3178 
G01 X-20.9962 Y12.2217 
G01 X-21.1117 Y12.1062 
G01 X-21.1534 Y12.0489 
G01 X-22.2411 Y12.0489 
G01 X-22.2411 Y18.4311 
G01 X-4.4289 Y18.4311 
G01 X-4.4289 Y11.4139 
G01 X-8.4377 Y11.4139 
G01 X-8.5991 Y11.5230 
G01 X-8.7742 Y11.5955 
G01 X-8.9602 Y11.6325 
G01 X-9.1498 Y11.6325 
G01 X-9.3358 Y11.5955 
G01 X-9.5109 Y11.5230 
G01 X-9.6686 Y11.4176 
G01 X-9.8026 Y11.2836 
G01 X-9.9080 Y11.1259 
G01 X-9.9805 Y10.9508 
G01 X-10.0175 Y10.7648 
G01 X-10.0175 Y10.5752 
G01 X-9.9805 Y10.3892 
G01 X-9.9080 Y10.2141 
G01 X-9.8026 Y10.0564 
G01 X-9.6686 Y9.9224 
G01 X-9.5109 Y9.8170 
G01 X-9.3358 Y9.7445 
G01 X-9.1498 Y9.7075 
G01 X-8.9602 Y9.7075 
G01 X-8.7742 Y9.7445 
G01 X-8.5991 Y9.8170 
G01 X-8.4414 Y9.9224 
G01 X-8.3074 Y10.0564 
G01 X-8.2274 Y10.1761 
G01 X-3.7490 Y10.1761 
G01 X-3.6295 Y10.1999 
G01 X-3.5168 Y10.2465 
G01 X-3.4155 Y10.3143 
G01 X-3.3293 Y10.4005 
G00 Z5.0000 
G00 X-8.3074 Y12.0964 
G01 Z-0.0800 F300.00 
G01 X-8.2020 Y12.2541 F400.00 
G01 X-8.1295 Y12.4292 
G01 X-8.0925 Y12.6152 
G01 X-8.0925 Y12.8048 
G01 X-8.1295 Y12.9908 
G01 X-8.2020 Y13.1659 
G01 X-8.3074 Y13.3236 
G01 X-8.4361 Y13.4523 
G01 X-8.4361 Y14.0310 
G01 X-8.4599 Y14.1505 
G01 X-8.5065 Y14.2632 
G01 X-8.5743 Y14.3645 
G01 X-8.6605 Y14.4507 
G01 X-8.7618 Y14.5185 
G01 X-8.8745 Y14.5651 
G01 X-8.9940 Y14.5889 
G01 X-9.5411 Y14.5889 
G01 X-9.5411 Y16.5710 
G01 X-9.5649 Y16.6905 
G01 X-9.6115 Y16.8032 
G01 X-9.6793 Y16.9045 
G01 X-9.7655 Y16.9907 
G01 X-9.8668 Y17.0585 
G01 X-9.9795 Y17.1051 
G01 X-10.0990 Y17.1289 
G01 X-19.2820 Y17.1289 
G01 X-19.2820 Y17.3778 
G01 X-19.3144 Y17.4559 
G01 X-19.3741 Y17.5156 
G01 X-19.4522 Y17.5480 
G01 X-21.1878 Y17.5480 
G01 X-21.2659 Y17.5156 
G01 X-21.3256 Y17.4559 
G01 X-21.3580 Y17.3778 
G01 X-21.3580 Y15.6422 
G01 X-21.3256 Y15.5641 
G01 X-21.2659 Y15.5044 
G01 X-21.1878 Y15.4720 
G01 X-19.4522 Y15.4720 
G01 X-19.3741 Y15.5044 
G01 X-19.3144 Y15.5641 
G01 X-19.2820 Y15.6422 
G01 X-19.2820 Y15.8911 
G01 X-10.7789 Y15.8911 
G01 X-10.7789 Y13.9090 
G01 X-10.7551 Y13.7895 
G01 X-10.7085 Y13.6768 
G01 X-10.6407 Y13.5755 
G01 X-10.5545 Y13.4893 
G01 X-10.4532 Y13.4215 
G01 X-10.3405 Y13.3749 
G01 X-10.2210 Y13.3511 
G01 X-9.7751 Y13.3511 
G01 X-9.8026 Y13.3236 
G01 X-9.9080 Y13.1659 
G01 X-9.9805 Y12.9908 
G01 X-10.0175 Y12.8048 
G01 X-10.0175 Y12.6152 
G01 X-9.9805 Y12.4292 
G01 X-9.9080 Y12.2541 
G01 X-9.8026 Y12.0964 
G01 X-9.6686 Y11.9624 
G01 X-9.5109 Y11.8570 
G01 X-9.3358 Y11.7845 
G01 X-9.1498 Y11.7475 
G01 X-8.9602 Y11.7475 
G01 X-8.7742 Y11.7845 
G01 X-8.5991 Y11.8570 
G01 X-8.4414 Y11.9624 
G01 X-8.3074 Y12.0964 
G00 Z5.0000 
G00 X-10.7420 Y12.1459 
G01 Z-0.0800 F300.00 
G01 X-10.8111 Y12.2493 F400.00 
G01 X-10.8111 Y12.7610 
G01 X-10.8349 Y12.8805 
G01 X-10.8815 Y12.9932 
G01 X-10.9493 Y13.0945 
G01 X-11.0355 Y13.1807 
G01 X-11.1368 Y13.2485 
G01 X-11.2495 Y13.2951 
G01 X-11.3690 Y13.3189 
G01 X-13.3511 Y13.3189 
G01 X-13.3511 Y14.0310 
G01 X-13.3749 Y14.1505 
G01 X-13.4215 Y14.2632 
G01 X-13.4893 Y14.3645 
G01 X-13.5755 Y14.4507 
G01 X-13.6768 Y14.5185 
G01 X-13.7895 Y14.5651 
G01 X-13.9090 Y14.5889 
G01 X-19.4866 Y14.5889 
G01 X-19.5283 Y14.6462 
G01 X-19.6438 Y14.7617 
G01 X-19.7760 Y14.8578 
G01 X-19.9215 Y14.9320 
G01 X-20.0769 Y14.9824 
G01 X-20.2383 Y15.0080 
G01 X-20.4017 Y15.0080 
G01 X-20.5631 Y14.9824 
G01 X-20.7185 Y14.9320 
G01 X-20.8640 Y14.8578 
G01 X-20.9962 Y14.7617 
G01 X-21.1117 Y14.6462 
G01 X-21.2078 Y14.5140 
G01 X-21.2820 Y14.3685 
G01 X-21.3324 Y14.2131 
G01 X-21.3580 Y14.0517 
G01 X-21.3580 Y13.8883 
G01 X-21.3324 Y13.7269 
G01 X-21.2820 Y13.5715 
G01 X-21.2078 Y13.4260 
G01 X-21.1117 Y13.2938 
G01 X-20.9962 Y13.1783 
G01 X-20.8640 Y13.0822 
G01 X-20.7185 Y13.0080 
G01 X-20.5631 Y12.9576 
G01 X-20.4017 Y12.9320 
G01 X-20.2383 Y12.9320 
G01 X-20.0769 Y12.9576 
G01 X-19.9215 Y13.0080 
G01 X-19.7760 Y13.0822 
G01 X-19.6438 Y13.1783 
G01 X-19.5283 Y13.2938 
G01 X-19.4866 Y13.3511 
G01 X-14.5889 Y13.3511 
G01 X-14.5889 Y12.6390 
G01 X-14.5651 Y12.5195 
G01 X-14.5185 Y12.4068 
G01 X-14.4507 Y12.3055 
G01 X-14.3645 Y12.2193 
G01 X-14.2632 Y12.1515 
G01 X-14.1505 Y12.1049 
G01 X-14.0310 Y12.0811 
G01 X-12.4748 Y12.0811 
G01 X-12.5205 Y11.9708 
G01 X-12.5575 Y11.7848 
G01 X-12.5575 Y11.5952 
G01 X-12.5205 Y11.4092 
G01 X-12.4480 Y11.2341 
G01 X-12.3426 Y11.0764 
G01 X-12.2086 Y10.9424 
G01 X-12.0509 Y10.8370 
G01 X-11.8758 Y10.7645 
G01 X-11.6898 Y10.7275 
G01 X-11.5002 Y10.7275 
G01 X-11.3142 Y10.7645 
G01 X-11.1391 Y10.8370 
G01 X-10.9814 Y10.9424 
G01 X-10.8474 Y11.0764 
G01 X-10.7420 Y11.2341 
G01 X-10.6695 Y11.4092 
G01 X-10.6325 Y11.5952 
G01 X-10.6325 Y11.7848 
G01 X-10.6695 Y11.9708 
G01 X-10.7420 Y12.1459 
G00 Z5.0000 
G00 X-10.9814 Y10.3976 
G01 Z-0.0800 F300.00 
G01 X-11.1391 Y10.5030 F400.00 
G01 X-11.3142 Y10.5755 
G01 X-11.5002 Y10.6125 
G01 X-11.6898 Y10.6125 
G01 X-11.8758 Y10.5755 
G01 X-12.0509 Y10.5030 
G01 X-12.2086 Y10.3976 
G01 X-12.3373 Y10.2689 
G01 X-14.0310 Y10.2689 
G01 X-14.1505 Y10.2451 
G01 X-14.2632 Y10.1985 
G01 X-14.3645 Y10.1307 
G01 X-14.4507 Y10.0445 
G01 X-14.5185 Y9.9432 
G01 X-14.5651 Y9.8305 
G01 X-14.5889 Y9.7110 
G01 X-14.5889 Y9.5089 
G01 X-19.4866 Y9.5089 
G01 X-19.5283 Y9.5662 
G01 X-19.6438 Y9.6817 
G01 X-19.7760 Y9.7778 
G01 X-19.9215 Y9.8520 
G01 X-20.0769 Y9.9024 
G01 X-20.2383 Y9.9280 
G01 X-20.4017 Y9.9280 
G01 X-20.5631 Y9.9024 
G01 X-20.7185 Y9.8520 
G01 X-20.8640 Y9.7778 
G01 X-20.9962 Y9.6817 
G01 X-21.1117 Y9.5662 
G01 X-21.2078 Y9.4340 
G01 X-21.2820 Y9.2885 
G01 X-21.3324 Y9.1331 
G01 X-21.3580 Y8.9717 
G01 X-21.3580 Y8.8083 
G01 X-21.3324 Y8.6469 
G01 X-21.2820 Y8.4915 
G01 X-21.2078 Y8.3460 
G01 X-21.1117 Y8.2138 
G01 X-20.9962 Y8.0983 
G01 X-20.8640 Y8.0022 
G01 X-20.7185 Y7.9280 
G01 X-20.5631 Y7.8776 
G01 X-20.4017 Y7.8520 
G01 X-20.2383 Y7.8520 
G01 X-20.0769 Y7.8776 
G01 X-19.9215 Y7.9280 
G01 X-19.7760 Y8.0022 
G01 X-19.6438 Y8.0983 
G01 X-19.5283 Y8.2138 
G01 X-19.4866 Y8.2711 
G01 X-13.9090 Y8.2711 
G01 X-13.7895 Y8.2949 
G01 X-13.6768 Y8.3415 
G01 X-13.5755 Y8.4093 
G01 X-13.4893 Y8.4955 
G01 X-13.4215 Y8.5968 
G01 X-13.3749 Y8.7095 
G01 X-13.3511 Y8.8290 
G01 X-13.3511 Y9.0311 
G01 X-12.3373 Y9.0311 
G01 X-12.2086 Y8.9024 
G01 X-12.0509 Y8.7970 
G01 X-11.8758 Y8.7245 
G01 X-11.6898 Y8.6875 
G01 X-11.5002 Y8.6875 
G01 X-11.3142 Y8.7245 
G01 X-11.1391 Y8.7970 
G01 X-10.9814 Y8.9024 
G01 X-10.8474 Y9.0364 
G01 X-10.7420 Y9.1941 
G01 X-10.6695 Y9.3692 
G01 X-10.6325 Y9.5552 
G01 X-10.6325 Y9.7448 
G01 X-10.6695 Y9.9307 
G01 X-10.7420 Y10.1059 
G01 X-10.8474 Y10.2636 
G01 X-10.9814 Y10.3976 
G00 Z5.0000 
G00 X-10.9814 Y8.3576 
G01 Z-0.0800 F300.00 
G01 X-11.1391 Y8.4630 F400.00 
G01 X-11.3142 Y8.5355 
G01 X-11.5002 Y8.5725 
G01 X-11.6898 Y8.5725 
G01 X-11.8758 Y8.5355 
G01 X-12.0509 Y8.4630 
G01 X-12.2086 Y8.3576 
G01 X-12.3426 Y8.2236 
G01 X-12.4480 Y8.0659 
G01 X-12.5205 Y7.8908 
G01 X-12.5575 Y7.7048 
G01 X-12.5575 Y7.5152 
G01 X-12.5205 Y7.3292 
G01 X-12.4480 Y7.1541 
G01 X-12.3426 Y6.9964 
G01 X-12.2086 Y6.8624 
G01 X-12.0509 Y6.7570 
G01 X-12.0489 Y5.6989 
G01 X-14.0310 Y5.6989 
G01 X-14.1505 Y5.6751 
G01 X-14.2632 Y5.6285 
G01 X-14.3645 Y5.5607 
G01 X-14.4507 Y5.4745 
G01 X-14.5185 Y5.3732 
G01 X-14.5651 Y5.2605 
G01 X-14.5889 Y5.1410 
G01 X-14.5889 Y4.4289 
G01 X-19.4866 Y4.4289 
G01 X-19.5283 Y4.4862 
G01 X-19.6438 Y4.6017 
G01 X-19.7760 Y4.6978 
G01 X-19.9215 Y4.7720 
G01 X-20.0769 Y4.8224 
G01 X-20.2383 Y4.8480 
G01 X-20.4017 Y4.8480 
G01 X-20.5631 Y4.8224 
G01 X-20.7185 Y4.7720 
G01 X-20.8640 Y4.6978 
G01 X-20.9962 Y4.6017 
G01 X-21.1117 Y4.4862 
G01 X-21.2078 Y4.3540 
G01 X-21.2820 Y4.2085 
G01 X-21.3324 Y4.0531 
G01 X-21.3580 Y3.8917 
G01 X-21.3580 Y3.7283 
G01 X-21.3324 Y3.5669 
G01 X-21.2820 Y3.4115 
G01 X-21.2078 Y3.2660 
G01 X-21.1117 Y3.1338 
G01 X-20.9962 Y3.0183 
G01 X-20.8640 Y2.9222 
G01 X-20.7185 Y2.8480 
G01 X-20.5631 Y2.7976 
G01 X-20.4017 Y2.7720 
G01 X-20.2383 Y2.7720 
G01 X-20.0769 Y2.7976 
G01 X-19.9215 Y2.8480 
G01 X-19.7760 Y2.9222 
G01 X-19.6438 Y3.0183 
G01 X-19.5283 Y3.1338 
G01 X-19.4866 Y3.1911 
G01 X-13.9090 Y3.1911 
G01 X-13.7895 Y3.2149 
G01 X-13.6768 Y3.2615 
G01 X-13.5755 Y3.3293 
G01 X-13.4893 Y3.4155 
G01 X-13.4215 Y3.5168 
G01 X-13.3749 Y3.6295 
G01 X-13.3511 Y3.7490 
G01 X-13.3511 Y4.4611 
G01 X-11.3690 Y4.4611 
G01 X-11.2495 Y4.4849 
G01 X-11.1368 Y4.5315 
G01 X-11.0355 Y4.5993 
G01 X-10.9493 Y4.6855 
G01 X-10.8815 Y4.7868 
G01 X-10.8349 Y4.8995 
G01 X-10.8111 Y5.0190 
G01 X-10.8111 Y7.0507 
G01 X-10.7420 Y7.1541 
G01 X-10.6695 Y7.3292 
G01 X-10.6325 Y7.5152 
G01 X-10.6325 Y7.7048 
G01 X-10.6695 Y7.8908 
G01 X-10.7420 Y8.0659 
G01 X-10.8474 Y8.2236 
G01 X-10.9814 Y8.3576 
G00 Z5.0000 
G00 X-3.2904 Y0.8436 
G01 Z-0.0800 F300.00 
G01 X-3.2172 Y0.9532 F400.00 
G01 X-3.1668 Y1.0749 
G01 X-3.1411 Y1.2041 
G01 X-3.1411 Y8.6959 
G01 X-3.1668 Y8.8251 
G01 X-3.2172 Y8.9468 
G01 X-3.2904 Y9.0564 
G01 X-3.3836 Y9.1496 
G01 X-3.4932 Y9.2228 
G01 X-3.6149 Y9.2732 
G01 X-3.7441 Y9.2989 
G01 X-8.2920 Y9.2989 
G01 X-8.4096 Y9.4165 
G01 X-8.5754 Y9.5273 
G01 X-8.7597 Y9.6036 
G01 X-8.9553 Y9.6425 
G01 X-9.1547 Y9.6425 
G01 X-9.3503 Y9.6036 
G01 X-9.5346 Y9.5273 
G01 X-9.7004 Y9.4165 
G01 X-9.8415 Y9.2754 
G01 X-9.9523 Y9.1096 
G01 X-10.0286 Y8.9253 
G01 X-10.0675 Y8.7297 
G01 X-10.0675 Y8.5303 
G01 X-10.0286 Y8.3347 
G01 X-9.9523 Y8.1504 
G01 X-9.8415 Y7.9846 
G01 X-9.7004 Y7.8435 
G01 X-9.5346 Y7.7327 
G01 X-9.3503 Y7.6564 
G01 X-9.1547 Y7.6175 
G01 X-8.9553 Y7.6175 
G01 X-8.7597 Y7.6564 
G01 X-8.5754 Y7.7327 
G01 X-8.4096 Y7.8435 
G01 X-8.2920 Y7.9611 
G01 X-4.4789 Y7.9611 
G01 X-4.4789 Y1.9389 
G01 X-22.1911 Y1.9389 
G01 X-22.1911 Y5.6811 
G01 X-21.1789 Y5.6811 
G01 X-21.1499 Y5.6412 
G01 X-21.0288 Y5.5201 
G01 X-20.8902 Y5.4195 
G01 X-20.7376 Y5.3417 
G01 X-20.5748 Y5.2888 
G01 X-20.4056 Y5.2620 
G01 X-20.2344 Y5.2620 
G01 X-20.0652 Y5.2888 
G01 X-19.9024 Y5.3417 
G01 X-19.7498 Y5.4195 
G01 X-19.6112 Y5.5201 
G01 X-19.4901 Y5.6412 
G01 X-19.3895 Y5.7798 
G01 X-19.3117 Y5.9324 
G01 X-19.2588 Y6.0952 
G01 X-19.2320 Y6.2644 
G01 X-19.2320 Y6.4356 
G01 X-19.2588 Y6.6048 
G01 X-19.3117 Y6.7676 
G01 X-19.3895 Y6.9202 
G01 X-19.4901 Y7.0588 
G01 X-19.6112 Y7.1799 
G01 X-19.7498 Y7.2805 
G01 X-19.9024 Y7.3583 
G01 X-20.0652 Y7.4112 
G01 X-20.2344 Y7.4380 
G01 X-20.4056 Y7.4380 
G01 X-20.5748 Y7.4112 
G01 X-20.7376 Y7.3583 
G01 X-20.8902 Y7.2805 
G01 X-21.0288 Y7.1799 
G01 X-21.1499 Y7.0588 
G01 X-21.1789 Y7.0189 
G01 X-22.9259 Y7.0189 
G01 X-23.0551 Y6.9932 
G01 X-23.1768 Y6.9428 
G01 X-23.2864 Y6.8696 
G01 X-23.3796 Y6.7764 
G01 X-23.4528 Y6.6668 
G01 X-23.5032 Y6.5451 
G01 X-23.5289 Y6.4159 
G01 X-23.5289 Y1.2041 
G01 X-23.5032 Y1.0749 
G01 X-23.4528 Y0.9532 
G01 X-23.3796 Y0.8436 
G01 X-23.2864 Y0.7504 
G01 X-23.1768 Y0.6772 
G01 X-23.0551 Y0.6268 
G01 X-22.9259 Y0.6011 
G01 X-3.7441 Y0.6011 
G01 X-3.6149 Y0.6268 
G01 X-3.4932 Y0.6772 
G01 X-3.3836 Y0.7504 
G01 X-3.2904 Y0.8436 
G00 Z5.0000 
G00 X-3.2904 Y10.3686 
G01 Z-0.0800 F300.00 
G01 X-3.2172 Y10.4782 F400.00 
G01 X-3.1668 Y10.5999 
G01 X-3.1411 Y10.7291 
G01 X-3.1411 Y19.1159 
G01 X-3.1668 Y19.2451 
G01 X-3.2172 Y19.3668 
G01 X-3.2904 Y19.4764 
G01 X-3.3836 Y19.5696 
G01 X-3.4932 Y19.6428 
G01 X-3.6149 Y19.6932 
G01 X-3.7441 Y19.7189 
G01 X-22.9259 Y19.7189 
G01 X-23.0551 Y19.6932 
G01 X-23.1768 Y19.6428 
G01 X-23.2864 Y19.5696 
G01 X-23.3796 Y19.4764 
G01 X-23.4528 Y19.3668 
G01 X-23.5032 Y19.2451 
G01 X-23.5289 Y19.1159 
G01 X-23.5289 Y11.3641 
G01 X-23.5032 Y11.2349 
G01 X-23.4528 Y11.1132 
G01 X-23.3796 Y11.0036 
G01 X-23.2864 Y10.9104 
G01 X-23.1768 Y10.8372 
G01 X-23.0551 Y10.7868 
G01 X-22.9259 Y10.7611 
G01 X-21.1789 Y10.7611 
G01 X-21.1499 Y10.7212 
G01 X-21.0288 Y10.6001 
G01 X-20.8902 Y10.4995 
G01 X-20.7376 Y10.4217 
G01 X-20.5748 Y10.3688 
G01 X-20.4056 Y10.3420 
G01 X-20.2344 Y10.3420 
G01 X-20.0652 Y10.3688 
G01 X-19.9024 Y10.4217 
G01 X-19.7498 Y10.4995 
G01 X-19.6112 Y10.6001 
G01 X-19.4901 Y10.7212 
G01 X-19.3895 Y10.8598 
G01 X-19.3117 Y11.0124 
G01 X-19.2588 Y11.1752 
G01 X-19.2320 Y11.3444 
G01 X-19.2320 Y11.5156 
G01 X-19.2588 Y11.6848 
G01 X-19.3117 Y11.8476 
G01 X-19.3895 Y12.0002 
G01 X-19.4901 Y12.1388 
G01 X-19.6112 Y12.2599 
G01 X-19.7498 Y12.3605 
G01 X-19.9024 Y12.4383 
G01 X-20.0652 Y12.4912 
G01 X-20.2344 Y12.5180 
G01 X-20.4056 Y12.5180 
G01 X-20.5748 Y12.4912 
G01 X-20.7376 Y12.4383 
G01 X-20.8902 Y12.3605 
G01 X-21.0288 Y12.2599 
G01 X-21.1499 Y12.1388 
G01 X-21.1789 Y12.0989 
G01 X-22.1911 Y12.0989 
G01 X-22.1911 Y18.3811 
G01 X-4.4789 Y18.3811 
G01 X-4.4789 Y11.4639 
G01 X-8.4207 Y11.4639 
G01 X-8.5754 Y11.5673 
G01 X-8.7597 Y11.6436 
G01 X-8.9553 Y11.6825 
G01 X-9.1547 Y11.6825 
G01 X-9.3503 Y11.6436 
G01 X-9.5346 Y11.5673 
G01 X-9.7004 Y11.4565 
G01 X-9.8415 Y11.3154 
G01 X-9.9523 Y11.1496 
G01 X-10.0286 Y10.9653 
G01 X-10.0675 Y10.7697 
G01 X-10.0675 Y10.5703 
G01 X-10.0286 Y10.3747 
G01 X-9.9523 Y10.1904 
G01 X-9.8415 Y10.0246 
G01 X-9.7004 Y9.8835 
G01 X-9.5346 Y9.7727 
G01 X-9.3503 Y9.6964 
G01 X-9.1547 Y9.6575 
G01 X-8.9553 Y9.6575 
G01 X-8.7597 Y9.6964 
G01 X-8.5754 Y9.7727 
G01 X-8.4096 Y9.8835 
G01 X-8.2685 Y10.0246 
G01 X-8.2007 Y10.1261 
G01 X-3.7441 Y10.1261 
G01 X-3.6149 Y10.1518 
G01 X-3.4932 Y10.2022 
G01 X-3.3836 Y10.2754 
G01 X-3.2904 Y10.3686 
G00 Z5.0000 
G00 X-8.2685 Y12.0646 
G01 Z-0.0800 F300.00 
G01 X-8.1577 Y12.2304 F400.00 
G01 X-8.0814 Y12.4147 
G01 X-8.0425 Y12.6103 
G01 X-8.0425 Y12.8097 
G01 X-8.0814 Y13.0053 
G01 X-8.1577 Y13.1896 
G01 X-8.2685 Y13.3554 
G01 X-8.3861 Y13.4730 
G01 X-8.3861 Y14.0359 
G01 X-8.4118 Y14.1651 
G01 X-8.4622 Y14.2868 
G01 X-8.5354 Y14.3964 
G01 X-8.6286 Y14.4896 
G01 X-8.7382 Y14.5628 
G01 X-8.8599 Y14.6132 
G01 X-8.9891 Y14.6389 
G01 X-9.4911 Y14.6389 
G01 X-9.4911 Y16.5759 
G01 X-9.5168 Y16.7051 
G01 X-9.5672 Y16.8268 
G01 X-9.6404 Y16.9364 
G01 X-9.7336 Y17.0296 
G01 X-9.8432 Y17.1028 
G01 X-9.9649 Y17.1532 
G01 X-10.0941 Y17.1789 
G01 X-19.2320 Y17.1789 
G01 X-19.2320 Y17.3701 
G01 X-19.2499 Y17.4368 
G01 X-19.2844 Y17.4967 
G01 X-19.3333 Y17.5456 
G01 X-19.3932 Y17.5801 
G01 X-19.4599 Y17.5980 
G01 X-21.1801 Y17.5980 
G01 X-21.2468 Y17.5801 
G01 X-21.3067 Y17.5456 
G01 X-21.3556 Y17.4967 
G01 X-21.3901 Y17.4368 
G01 X-21.4080 Y17.3701 
G01 X-21.4080 Y15.6499 
G01 X-21.3901 Y15.5832 
G01 X-21.3556 Y15.5233 
G01 X-21.3067 Y15.4744 
G01 X-21.2468 Y15.4399 
G01 X-21.1801 Y15.4220 
G01 X-19.4599 Y15.4220 
G01 X-19.3932 Y15.4399 
G01 X-19.3333 Y15.4744 
G01 X-19.2844 Y15.5233 
G01 X-19.2499 Y15.5832 
G01 X-19.2320 Y15.6499 
G01 X-19.2320 Y15.8411 
G01 X-10.8289 Y15.8411 
G01 X-10.8289 Y13.9041 
G01 X-10.8032 Y13.7749 
G01 X-10.7528 Y13.6532 
G01 X-10.6796 Y13.5436 
G01 X-10.5864 Y13.4504 
G01 X-10.4768 Y13.3772 
G01 X-10.3551 Y13.3268 
G01 X-10.2259 Y13.3011 
G01 X-9.8778 Y13.3011 
G01 X-9.9523 Y13.1896 
G01 X-10.0286 Y13.0053 
G01 X-10.0675 Y12.8097 
G01 X-10.0675 Y12.6103 
G01 X-10.0286 Y12.4147 
G01 X-9.9523 Y12.2304 
G01 X-9.8415 Y12.0646 
G01 X-9.7004 Y11.9235 
G01 X-9.5346 Y11.8127 
G01 X-9.3503 Y11.7364 
G01 X-9.1547 Y11.6975 
G01 X-8.9553 Y11.6975 
G01 X-8.7597 Y11.7364 
G01 X-8.5754 Y11.8127 
G01 X-8.4096 Y11.9235 
G01 X-8.2685 Y12.0646 
G00 Z5.0000 
G00 X-10.6214 Y11.9853 
G01 Z-0.0800 F300.00 
G01 X-10.6977 Y12.1696 F400.00 
G01 X-10.7611 Y12.2644 
G01 X-10.7611 Y12.7659 
G01 X-10.7868 Y12.8951 
G01 X-10.8372 Y13.0168 
G01 X-10.9104 Y13.1264 
G01 X-11.0036 Y13.2196 
G01 X-11.1132 Y13.2928 
G01 X-11.2349 Y13.3432 
G01 X-11.3641 Y13.3689 
G01 X-13.3011 Y13.3689 
G01 X-13.3011 Y14.0359 
G01 X-13.3268 Y14.1651 
G01 X-13.3772 Y14.2868 
G01 X-13.4504 Y14.3964 
G01 X-13.5436 Y14.4896 
G01 X-13.6532 Y14.5628 
G01 X-13.7749 Y14.6132 
G01 X-13.9041 Y14.6389 
G01 X-19.4611 Y14.6389 
G01 X-19.4901 Y14.6788 
G01 X-19.6112 Y14.7999 
G01 X-19.7498 Y14.9005 
G01 X-19.9024 Y14.9783 
G01 X-20.0652 Y15.0312 
G01 X-20.2344 Y15.0580 
G01 X-20.4056 Y15.0580 
G01 X-20.5748 Y15.0312 
G01 X-20.7376 Y14.9783 
G01 X-20.8902 Y14.9005 
G01 X-21.0288 Y14.7999 
G01 X-21.1499 Y14.6788 
G01 X-21.2505 Y14.5402 
G01 X-21.3283 Y14.3876 
G01 X-21.3812 Y14.2248 
G01 X-21.4080 Y14.0556 
G01 X-21.4080 Y13.8844 
G01 X-21.3812 Y13.7152 
G01 X-21.3283 Y13.5524 
G01 X-21.2505 Y13.3998 
G01 X-21.1499 Y13.2612 
G01 X-21.0288 Y13.1401 
G01 X-20.8902 Y13.0395 
G01 X-20.7376 Y12.9617 
G01 X-20.5748 Y12.9088 
G01 X-20.4056 Y12.8820 
G01 X-20.2344 Y12.8820 
G01 X-20.0652 Y12.9088 
G01 X-19.9024 Y12.9617 
G01 X-19.7498 Y13.0395 
G01 X-19.6112 Y13.1401 
G01 X-19.4901 Y13.2612 
G01 X-19.4611 Y13.3011 
G01 X-14.6389 Y13.3011 
G01 X-14.6389 Y12.6341 
G01 X-14.6132 Y12.5049 
G01 X-14.5628 Y12.3832 
G01 X-14.4896 Y12.2736 
G01 X-14.3964 Y12.1804 
G01 X-14.2868 Y12.1072 
G01 X-14.1651 Y12.0568 
G01 X-14.0359 Y12.0311 
G01 X-12.5496 Y12.0311 
G01 X-12.5686 Y11.9853 
G01 X-12.6075 Y11.7897 
G01 X-12.6075 Y11.5903 
G01 X-12.5686 Y11.3947 
G01 X-12.4923 Y11.2104 
G01 X-12.3815 Y11.0446 
G01 X-12.2404 Y10.9035 
G01 X-12.0746 Y10.7927 
G01 X-11.8903 Y10.7164 
G01 X-11.6947 Y10.6775 
G01 X-11.4953 Y10.6775 
G01 X-11.2997 Y10.7164 
G01 X-11.1154 Y10.7927 
G01 X-10.9496 Y10.9035 
G01 X-10.8085 Y11.0446 
G01 X-10.6977 Y11.2104 
G01 X-10.6214 Y11.3947 
G01 X-10.5825 Y11.5903 
G01 X-10.5825 Y11.7897 
G01 X-10.6214 Y11.9853 
G00 Z5.0000 
G00 X-10.9496 Y10.4365 
G01 Z-0.0800 F300.00 
G01 X-11.1154 Y10.5473 F400.00 
G01 X-11.2997 Y10.6236 
G01 X-11.4953 Y10.6625 
G01 X-11.6947 Y10.6625 
G01 X-11.8903 Y10.6236 
G01 X-12.0746 Y10.5473 
G01 X-12.2404 Y10.4365 
G01 X-12.3580 Y10.3189 
G01 X-14.0359 Y10.3189 
G01 X-14.1651 Y10.2932 
G01 X-14.2868 Y10.2428 
G01 X-14.3964 Y10.1696 
G01 X-14.4896 Y10.0764 
G01 X-14.5628 Y9.9668 
G01 X-14.6132 Y9.8451 
G01 X-14.6389 Y9.7159 
G01 X-14.6389 Y9.5589 
G01 X-19.4611 Y9.5589 
G01 X-19.4901 Y9.5988 
G01 X-19.6112 Y9.7199 
G01 X-19.7498 Y9.8205 
G01 X-19.9024 Y9.8983 
G01 X-20.0652 Y9.9512 
G01 X-20.2344 Y9.9780 
G01 X-20.4056 Y9.9780 
G01 X-20.5748 Y9.9512 
G01 X-20.7376 Y9.8983 
G01 X-20.8902 Y9.8205 
G01 X-21.0288 Y9.7199 
G01 X-21.1499 Y9.5988 
G01 X-21.2505 Y9.4602 
G01 X-21.3283 Y9.3076 
G01 X-21.3812 Y9.1448 
G01 X-21.4080 Y8.9756 
G01 X-21.4080 Y8.8044 
G01 X-21.3812 Y8.6352 
G01 X-21.3283 Y8.4724 
G01 X-21.2505 Y8.3198 
G01 X-21.1499 Y8.1812 
G01 X-21.0288 Y8.0601 
G01 X-20.8902 Y7.9595 
G01 X-20.7376 Y7.8817 
G01 X-20.5748 Y7.8288 
G01 X-20.4056 Y7.8020 
G01 X-20.2344 Y7.8020 
G01 X-20.0652 Y7.8288 
G01 X-19.9024 Y7.8817 
G01 X-19.7498 Y7.9595 
G01 X-19.6112 Y8.0601 
G01 X-19.4901 Y8.1812 
G01 X-19.4611 Y8.2211 
G01 X-13.9041 Y8.2211 
G01 X-13.7749 Y8.2468 
G01 X-13.6532 Y8.2972 
G01 X-13.5436 Y8.3704 
G01 X-13.4504 Y8.4636 
G01 X-13.3772 Y8.5732 
G01 X-13.3268 Y8.6949 
G01 X-13.3011 Y8.8241 
G01 X-13.3011 Y8.9811 
G01 X-12.3580 Y8.9811 
G01 X-12.2404 Y8.8635 
G01 X-12.0746 Y8.7527 
G01 X-11.8903 Y8.6764 
G01 X-11.6947 Y8.6375 
G01 X-11.4953 Y8.6375 
G01 X-11.2997 Y8.6764 
G01 X-11.1154 Y8.7527 
G01 X-10.9496 Y8.8635 
G01 X-10.8085 Y9.0046 
G01 X-10.6977 Y9.1704 
G01 X-10.6214 Y9.3547 
G01 X-10.5825 Y9.5503 
G01 X-10.5825 Y9.7497 
G01 X-10.6214 Y9.9453 
G01 X-10.6977 Y10.1296 
G01 X-10.8085 Y10.2954 
G01 X-10.9496 Y10.4365 
G00 Z5.0000 
G00 X-10.9496 Y8.3965 
G01 Z-0.0800 F300.00 
G01 X-11.1154 Y8.5073 F400.00 
G01 X-11.2997 Y8.5836 
G01 X-11.4953 Y8.6225 
G01 X-11.6947 Y8.6225 
G01 X-11.8903 Y8.5836 
G01 X-12.0746 Y8.5073 
G01 X-12.2404 Y8.3965 
G01 X-12.3815 Y8.2554 
G01 X-12.4923 Y8.0896 
G01 X-12.5686 Y7.9053 
G01 X-12.6075 Y7.7097 
G01 X-12.6075 Y7.5103 
G01 X-12.5686 Y7.3147 
G01 X-12.4923 Y7.1304 
G01 X-12.3815 Y6.9646 
G01 X-12.2404 Y6.8235 
G01 X-12.0989 Y6.7290 
G01 X-12.0989 Y5.7489 
G01 X-14.0359 Y5.7489 
G01 X-14.1651 Y5.7232 
G01 X-14.2868 Y5.6728 
G01 X-14.3964 Y5.5996 
G01 X-14.4896 Y5.5064 
G01 X-14.5628 Y5.3968 
G01 X-14.6132 Y5.2751 
G01 X-14.6389 Y5.1459 
G01 X-14.6389 Y4.4789 
G01 X-19.4611 Y4.4789 
G01 X-19.4901 Y4.5188 
G01 X-19.6112 Y4.6399 
G01 X-19.7498 Y4.7405 
G01 X-19.9024 Y4.8183 
G01 X-20.0652 Y4.8712 
G01 X-20.2344 Y4.8980 
G01 X-20.4056 Y4.8980 
G01 X-20.5748 Y4.8712 
G01 X-20.7376 Y4.8183 
G01 X-20.8902 Y4.7405 
G01 X-21.0288 Y4.6399 
G01 X-21.1499 Y4.5188 
G01 X-21.2505 Y4.3802 
G01 X-21.3283 Y4.2276 
G01 X-21.3812 Y4.0648 
G01 X-21.4080 Y3.8956 
G01 X-21.4080 Y3.7244 
G01 X-21.3812 Y3.5552 
G01 X-21.3283 Y3.3923 
G01 X-21.2505 Y3.2398 
G01 X-21.1499 Y3.1012 
G01 X-21.0288 Y2.9801 
G01 X-20.8902 Y2.8795 
G01 X-20.7376 Y2.8017 
G01 X-20.5748 Y2.7488 
G01 X-20.4056 Y2.7220 
G01 X-20.2344 Y2.7220 
G01 X-20.0652 Y2.7488 
G01 X-19.9024 Y2.8017 
G01 X-19.7498 Y2.8795 
G01 X-19.6112 Y2.9801 
G01 X-19.4901 Y3.1012 
G01 X-19.4611 Y3.1411 
G01 X-13.9041 Y3.1411 
G01 X-13.7749 Y3.1668 
G01 X-13.6532 Y3.2172 
G01 X-13.5436 Y3.2904 
G01 X-13.4504 Y3.3836 
G01 X-13.3772 Y3.4932 
G01 X-13.3268 Y3.6149 
G01 X-13.3011 Y3.7441 
G01 X-13.3011 Y4.4111 
G01 X-11.3641 Y4.4111 
G01 X-11.2349 Y4.4368 
G01 X-11.1132 Y4.4872 
G01 X-11.0036 Y4.5604 
G01 X-10.9104 Y4.6536 
G01 X-10.8372 Y4.7632 
G01 X-10.7868 Y4.8849 
G01 X-10.7611 Y5.0141 
G01 X-10.7611 Y7.0356 
G01 X-10.6977 Y7.1304 
G01 X-10.6214 Y7.3147 
G01 X-10.5825 Y7.5103 
G01 X-10.5825 Y7.7097 
G01 X-10.6214 Y7.9053 
G01 X-10.6977 Y8.0896 
G01 X-10.8085 Y8.2554 
G01 X-10.9496 Y8.3965 
G00 Z5.0000 
G00 X-3.2516 Y0.8117 
G01 Z-0.0800 F300.00 
G01 X-3.1729 Y0.9295 F400.00 
G01 X-3.1187 Y1.0603 
G01 X-3.0911 Y1.1992 
G01 X-3.0911 Y8.7008 
G01 X-3.1187 Y8.8397 
G01 X-3.1729 Y8.9705 
G01 X-3.2516 Y9.0883 
G01 X-3.3517 Y9.1884 
G01 X-3.4695 Y9.2671 
G01 X-3.6003 Y9.3213 
G01 X-3.7392 Y9.3489 
G01 X-8.2713 Y9.3489 
G01 X-8.3628 Y9.4404 
G01 X-8.4981 Y9.5387 
G01 X-8.6471 Y9.6147 
G01 X-8.7559 Y9.6500 
G01 X-8.6471 Y9.6853 
G01 X-8.4981 Y9.7613 
G01 X-8.3628 Y9.8596 
G01 X-8.2446 Y9.9778 
G01 X-8.1732 Y10.0761 
G01 X-3.7392 Y10.0761 
G01 X-3.6003 Y10.1037 
G01 X-3.4695 Y10.1579 
G01 X-3.3517 Y10.2366 
G01 X-3.2516 Y10.3367 
G01 X-3.1729 Y10.4545 
G01 X-3.1187 Y10.5853 
G01 X-3.0911 Y10.7242 
G01 X-3.0911 Y19.1208 
G01 X-3.1187 Y19.2597 
G01 X-3.1729 Y19.3905 
G01 X-3.2516 Y19.5083 
G01 X-3.3517 Y19.6084 
G01 X-3.4695 Y19.6871 
G01 X-3.6003 Y19.7413 
G01 X-3.7392 Y19.7689 
G01 X-22.9308 Y19.7689 
G01 X-23.0697 Y19.7413 
G01 X-23.2005 Y19.6871 
G01 X-23.3183 Y19.6084 
G01 X-23.4184 Y19.5083 
G01 X-23.4971 Y19.3905 
G01 X-23.5513 Y19.2597 
G01 X-23.5789 Y19.1208 
G01 X-23.5789 Y11.3592 
G01 X-23.5513 Y11.2203 
G01 X-23.4971 Y11.0895 
G01 X-23.4184 Y10.9717 
G01 X-23.3183 Y10.8716 
G01 X-23.2005 Y10.7929 
G01 X-23.0697 Y10.7387 
G01 X-22.9308 Y10.7111 
G01 X-21.2043 Y10.7111 
G01 X-21.1880 Y10.6886 
G01 X-21.0614 Y10.5620 
G01 X-20.9164 Y10.4567 
G01 X-20.7568 Y10.3754 
G01 X-20.5865 Y10.3200 
G01 X-20.4096 Y10.2920 
G01 X-20.2304 Y10.2920 
G01 X-20.0535 Y10.3200 
G01 X-19.8832 Y10.3754 
G01 X-19.7236 Y10.4567 
G01 X-19.5786 Y10.5620 
G01 X-19.4520 Y10.6886 
G01 X-19.3467 Y10.8336 
G01 X-19.2654 Y10.9932 
G01 X-19.2100 Y11.1635 
G01 X-19.1820 Y11.3404 
G01 X-19.1820 Y11.5196 
G01 X-19.2100 Y11.6965 
G01 X-19.2654 Y11.8668 
G01 X-19.3467 Y12.0264 
G01 X-19.4520 Y12.1714 
G01 X-19.5786 Y12.2980 
G01 X-19.7236 Y12.4033 
G01 X-19.8832 Y12.4846 
G01 X-20.0535 Y12.5400 
G01 X-20.2304 Y12.5680 
G01 X-20.4096 Y12.5680 
G01 X-20.5865 Y12.5400 
G01 X-20.7568 Y12.4846 
G01 X-20.9164 Y12.4033 
G01 X-21.0614 Y12.2980 
G01 X-21.1880 Y12.1714 
G01 X-21.2043 Y12.1489 
G01 X-22.1411 Y12.1489 
G01 X-22.1411 Y18.3311 
G01 X-4.5289 Y18.3311 
G01 X-4.5289 Y11.5139 
G01 X-8.4089 Y11.5139 
G01 X-8.4981 Y11.5787 
G01 X-8.6471 Y11.6547 
G01 X-8.7559 Y11.6900 
G01 X-8.6471 Y11.7253 
G01 X-8.4981 Y11.8013 
G01 X-8.3628 Y11.8996 
G01 X-8.2446 Y12.0178 
G01 X-8.1463 Y12.1531 
G01 X-8.0703 Y12.3021 
G01 X-8.0187 Y12.4612 
G01 X-7.9925 Y12.6264 
G01 X-7.9925 Y12.7936 
G01 X-8.0187 Y12.9588 
G01 X-8.0703 Y13.1179 
G01 X-8.1463 Y13.2669 
G01 X-8.2446 Y13.4022 
G01 X-8.3361 Y13.4937 
G01 X-8.3361 Y14.0408 
G01 X-8.3637 Y14.1797 
G01 X-8.4179 Y14.3105 
G01 X-8.4966 Y14.4283 
G01 X-8.5967 Y14.5284 
G01 X-8.7145 Y14.6071 
G01 X-8.8453 Y14.6613 
G01 X-8.9842 Y14.6889 
G01 X-9.4411 Y14.6889 
G01 X-9.4411 Y16.5808 
G01 X-9.4687 Y16.7197 
G01 X-9.5229 Y16.8505 
G01 X-9.6016 Y16.9683 
G01 X-9.7017 Y17.0684 
G01 X-9.8195 Y17.1471 
G01 X-9.9503 Y17.2013 
G01 X-10.0892 Y17.2289 
G01 X-19.1820 Y17.2289 
G01 X-19.1820 Y17.3766 
G01 X-19.2033 Y17.4561 
G01 X-19.2444 Y17.5274 
G01 X-19.3026 Y17.5856 
G01 X-19.3739 Y17.6267 
G01 X-19.4534 Y17.6480 
G01 X-21.1866 Y17.6480 
G01 X-21.2661 Y17.6267 
G01 X-21.3374 Y17.5856 
G01 X-21.3956 Y17.5274 
G01 X-21.4367 Y17.4561 
G01 X-21.4580 Y17.3766 
G01 X-21.4580 Y15.6434 
G01 X-21.4367 Y15.5639 
G01 X-21.3956 Y15.4926 
G01 X-21.3374 Y15.4344 
G01 X-21.2661 Y15.3933 
G01 X-21.1866 Y15.3720 
G01 X-19.4534 Y15.3720 
G01 X-19.3739 Y15.3933 
G01 X-19.3026 Y15.4344 
G01 X-19.2444 Y15.4926 
G01 X-19.2033 Y15.5639 
G01 X-19.1820 Y15.6434 
G01 X-19.1820 Y15.7911 
G01 X-10.8789 Y15.7911 
G01 X-10.8789 Y13.8992 
G01 X-10.8513 Y13.7603 
G01 X-10.7971 Y13.6295 
G01 X-10.7184 Y13.5117 
G01 X-10.6183 Y13.4116 
G01 X-10.5005 Y13.3329 
G01 X-10.3697 Y13.2787 
G01 X-10.2308 Y13.2511 
G01 X-9.9718 Y13.2511 
G01 X-10.0397 Y13.1179 
G01 X-10.0913 Y12.9588 
G01 X-10.1175 Y12.7936 
G01 X-10.1175 Y12.6264 
G01 X-10.0913 Y12.4612 
G01 X-10.0397 Y12.3021 
G01 X-9.9637 Y12.1531 
G01 X-9.8654 Y12.0178 
G01 X-9.7472 Y11.8996 
G01 X-9.6119 Y11.8013 
G01 X-9.4629 Y11.7253 
G01 X-9.3541 Y11.6900 
G01 X-9.4629 Y11.6547 
G01 X-9.6119 Y11.5787 
G01 X-9.7472 Y11.4804 
G01 X-9.8654 Y11.3622 
G01 X-9.9637 Y11.2269 
G01 X-10.0397 Y11.0779 
G01 X-10.0913 Y10.9188 
G01 X-10.1175 Y10.7536 
G01 X-10.1175 Y10.5864 
G01 X-10.0913 Y10.4212 
G01 X-10.0397 Y10.2621 
G01 X-9.9637 Y10.1131 
G01 X-9.8654 Y9.9778 
G01 X-9.7472 Y9.8596 
G01 X-9.6119 Y9.7613 
G01 X-9.4629 Y9.6853 
G01 X-9.3541 Y9.6500 
G01 X-9.4629 Y9.6147 
G01 X-9.6119 Y9.5387 
G01 X-9.7472 Y9.4404 
G01 X-9.8654 Y9.3222 
G01 X-9.9637 Y9.1869 
G01 X-10.0397 Y9.0379 
G01 X-10.0913 Y8.8788 
G01 X-10.1175 Y8.7136 
G01 X-10.1175 Y8.5464 
G01 X-10.0913 Y8.3812 
G01 X-10.0397 Y8.2221 
G01 X-9.9637 Y8.0731 
G01 X-9.8654 Y7.9378 
G01 X-9.7472 Y7.8196 
G01 X-9.6119 Y7.7213 
G01 X-9.4629 Y7.6453 
G01 X-9.3038 Y7.5937 
G01 X-9.1386 Y7.5675 
G01 X-8.9714 Y7.5675 
G01 X-8.8062 Y7.5937 
G01 X-8.6471 Y7.6453 
G01 X-8.4981 Y7.7213 
G01 X-8.3628 Y7.8196 
G01 X-8.2713 Y7.9111 
G01 X-4.5289 Y7.9111 
G01 X-4.5289 Y1.9889 
G01 X-22.1411 Y1.9889 
G01 X-22.1411 Y5.6311 
G01 X-21.2043 Y5.6311 
G01 X-21.1880 Y5.6086 
G01 X-21.0614 Y5.4820 
G01 X-20.9164 Y5.3767 
G01 X-20.7568 Y5.2954 
G01 X-20.5865 Y5.2400 
G01 X-20.4096 Y5.2120 
G01 X-20.2304 Y5.2120 
G01 X-20.0535 Y5.2400 
G01 X-19.8832 Y5.2954 
G01 X-19.7236 Y5.3767 
G01 X-19.5786 Y5.4820 
G01 X-19.4520 Y5.6086 
G01 X-19.3467 Y5.7536 
G01 X-19.2654 Y5.9132 
G01 X-19.2100 Y6.0835 
G01 X-19.1820 Y6.2604 
G01 X-19.1820 Y6.4396 
G01 X-19.2100 Y6.6165 
G01 X-19.2654 Y6.7868 
G01 X-19.3467 Y6.9464 
G01 X-19.4520 Y7.0914 
G01 X-19.5786 Y7.2180 
G01 X-19.7236 Y7.3233 
G01 X-19.8832 Y7.4046 
G01 X-20.0535 Y7.4600 
G01 X-20.2304 Y7.4880 
G01 X-20.4096 Y7.4880 
G01 X-20.5865 Y7.4600 
G01 X-20.7568 Y7.4046 
G01 X-20.9164 Y7.3233 
G01 X-21.0614 Y7.2180 
G01 X-21.1880 Y7.0914 
G01 X-21.2043 Y7.0689 
G01 X-22.9308 Y7.0689 
G01 X-23.0697 Y7.0413 
G01 X-23.2005 Y6.9871 
G01 X-23.3183 Y6.9084 
G01 X-23.4184 Y6.8083 
G01 X-23.4971 Y6.6905 
G01 X-23.5513 Y6.5597 
G01 X-23.5789 Y6.4208 
G01 X-23.5789 Y1.1992 
G01 X-23.5513 Y1.0603 
G01 X-23.4971 Y0.9295 
G01 X-23.4184 Y0.8117 
G01 X-23.3183 Y0.7116 
G01 X-23.2005 Y0.6329 
G01 X-23.0697 Y0.5787 
G01 X-22.9308 Y0.5511 
G01 X-3.7392 Y0.5511 
G01 X-3.6003 Y0.5787 
G01 X-3.4695 Y0.6329 
G01 X-3.3517 Y0.7116 
G01 X-3.2516 Y0.8117 
G00 Z5.0000 
G00 X-10.8716 Y4.6217 
G01 Z-0.0800 F300.00 
G01 X-10.7929 Y4.7395 F400.00 
G01 X-10.7387 Y4.8703 
G01 X-10.7111 Y5.0092 
G01 X-10.7111 Y7.0190 
G01 X-10.6863 Y7.0531 
G01 X-10.6103 Y7.2021 
G01 X-10.5587 Y7.3612 
G01 X-10.5325 Y7.5264 
G01 X-10.5325 Y7.6936 
G01 X-10.5587 Y7.8588 
G01 X-10.6103 Y8.0179 
G01 X-10.6863 Y8.1669 
G01 X-10.7846 Y8.3022 
G01 X-10.9028 Y8.4204 
G01 X-11.0381 Y8.5187 
G01 X-11.1871 Y8.5947 
G01 X-11.2959 Y8.6300 
G01 X-11.1871 Y8.6653 
G01 X-11.0381 Y8.7413 
G01 X-10.9028 Y8.8396 
G01 X-10.7846 Y8.9578 
G01 X-10.6863 Y9.0931 
G01 X-10.6103 Y9.2421 
G01 X-10.5587 Y9.4012 
G01 X-10.5325 Y9.5664 
G01 X-10.5325 Y9.7336 
G01 X-10.5587 Y9.8988 
G01 X-10.6103 Y10.0579 
G01 X-10.6863 Y10.2069 
G01 X-10.7846 Y10.3422 
G01 X-10.9028 Y10.4604 
G01 X-11.0381 Y10.5587 
G01 X-11.1871 Y10.6347 
G01 X-11.2959 Y10.6700 
G01 X-11.1871 Y10.7053 
G01 X-11.0381 Y10.7813 
G01 X-10.9028 Y10.8796 
G01 X-10.7846 Y10.9978 
G01 X-10.6863 Y11.1331 
G01 X-10.6103 Y11.2821 
G01 X-10.5587 Y11.4412 
G01 X-10.5325 Y11.6064 
G01 X-10.5325 Y11.7736 
G01 X-10.5587 Y11.9388 
G01 X-10.6103 Y12.0979 
G01 X-10.6863 Y12.2469 
G01 X-10.7111 Y12.2810 
G01 X-10.7111 Y12.7708 
G01 X-10.7387 Y12.9097 
G01 X-10.7929 Y13.0405 
G01 X-10.8716 Y13.1583 
G01 X-10.9717 Y13.2584 
G01 X-11.0895 Y13.3371 
G01 X-11.2203 Y13.3913 
G01 X-11.3592 Y13.4189 
G01 X-13.2511 Y13.4189 
G01 X-13.2511 Y14.0408 
G01 X-13.2787 Y14.1797 
G01 X-13.3329 Y14.3105 
G01 X-13.4116 Y14.4283 
G01 X-13.5117 Y14.5284 
G01 X-13.6295 Y14.6071 
G01 X-13.7603 Y14.6613 
G01 X-13.8992 Y14.6889 
G01 X-19.4357 Y14.6889 
G01 X-19.4520 Y14.7114 
G01 X-19.5786 Y14.8380 
G01 X-19.7236 Y14.9433 
G01 X-19.8832 Y15.0246 
G01 X-20.0535 Y15.0800 
G01 X-20.2304 Y15.1080 
G01 X-20.4096 Y15.1080 
G01 X-20.5865 Y15.0800 
G01 X-20.7568 Y15.0246 
G01 X-20.9164 Y14.9433 
G01 X-21.0614 Y14.8380 
G01 X-21.1880 Y14.7114 
G01 X-21.2933 Y14.5664 
G01 X-21.3746 Y14.4068 
G01 X-21.4300 Y14.2365 
G01 X-21.4580 Y14.0596 
G01 X-21.4580 Y13.8804 
G01 X-21.4300 Y13.7035 
G01 X-21.3746 Y13.5332 
G01 X-21.2933 Y13.3736 
G01 X-21.1880 Y13.2286 
G01 X-21.0614 Y13.1020 
G01 X-20.9164 Y12.9967 
G01 X-20.7568 Y12.9154 
G01 X-20.5865 Y12.8600 
G01 X-20.4096 Y12.8320 
G01 X-20.2304 Y12.8320 
G01 X-20.0535 Y12.8600 
G01 X-19.8832 Y12.9154 
G01 X-19.7236 Y12.9967 
G01 X-19.5786 Y13.1020 
G01 X-19.4520 Y13.2286 
G01 X-19.4357 Y13.2511 
G01 X-14.6889 Y13.2511 
G01 X-14.6889 Y12.6292 
G01 X-14.6613 Y12.4903 
G01 X-14.6071 Y12.3595 
G01 X-14.5284 Y12.2417 
G01 X-14.4283 Y12.1416 
G01 X-14.3105 Y12.0629 
G01 X-14.1797 Y12.0087 
G01 X-14.0408 Y11.9811 
G01 X-12.6176 Y11.9811 
G01 X-12.6313 Y11.9388 
G01 X-12.6575 Y11.7736 
G01 X-12.6575 Y11.6064 
G01 X-12.6313 Y11.4412 
G01 X-12.5797 Y11.2821 
G01 X-12.5037 Y11.1331 
G01 X-12.4054 Y10.9978 
G01 X-12.2872 Y10.8796 
G01 X-12.1519 Y10.7813 
G01 X-12.0029 Y10.7053 
G01 X-11.8941 Y10.6700 
G01 X-12.0029 Y10.6347 
G01 X-12.1519 Y10.5587 
G01 X-12.2872 Y10.4604 
G01 X-12.3787 Y10.3689 
G01 X-14.0408 Y10.3689 
G01 X-14.1797 Y10.3413 
G01 X-14.3105 Y10.2871 
G01 X-14.4283 Y10.2084 
G01 X-14.5284 Y10.1083 
G01 X-14.6071 Y9.9905 
G01 X-14.6613 Y9.8597 
G01 X-14.6889 Y9.7208 
G01 X-14.6889 Y9.6089 
G01 X-19.4357 Y9.6089 
G01 X-19.4520 Y9.6314 
G01 X-19.5786 Y9.7580 
G01 X-19.7236 Y9.8633 
G01 X-19.8832 Y9.9446 
G01 X-20.0535 Y10.0000 
G01 X-20.2304 Y10.0280 
G01 X-20.4096 Y10.0280 
G01 X-20.5865 Y10.0000 
G01 X-20.7568 Y9.9446 
G01 X-20.9164 Y9.8633 
G01 X-21.0614 Y9.7580 
G01 X-21.1880 Y9.6314 
G01 X-21.2933 Y9.4864 
G01 X-21.3746 Y9.3268 
G01 X-21.4300 Y9.1565 
G01 X-21.4580 Y8.9796 
G01 X-21.4580 Y8.8004 
G01 X-21.4300 Y8.6235 
G01 X-21.3746 Y8.4532 
G01 X-21.2933 Y8.2936 
G01 X-21.1880 Y8.1486 
G01 X-21.0614 Y8.0220 
G01 X-20.9164 Y7.9167 
G01 X-20.7568 Y7.8354 
G01 X-20.5865 Y7.7800 
G01 X-20.4096 Y7.7520 
G01 X-20.2304 Y7.7520 
G01 X-20.0535 Y7.7800 
G01 X-19.8832 Y7.8354 
G01 X-19.7236 Y7.9167 
G01 X-19.5786 Y8.0220 
G01 X-19.4520 Y8.1486 
G01 X-19.4357 Y8.1711 
G01 X-13.8992 Y8.1711 
G01 X-13.7603 Y8.1987 
G01 X-13.6295 Y8.2529 
G01 X-13.5117 Y8.3316 
G01 X-13.4116 Y8.4317 
G01 X-13.3329 Y8.5495 
G01 X-13.2787 Y8.6803 
G01 X-13.2511 Y8.8192 
G01 X-13.2511 Y8.9311 
G01 X-12.3787 Y8.9311 
G01 X-12.2872 Y8.8396 
G01 X-12.1519 Y8.7413 
G01 X-12.0029 Y8.6653 
G01 X-11.8941 Y8.6300 
G01 X-12.0029 Y8.5947 
G01 X-12.1519 Y8.5187 
G01 X-12.2872 Y8.4204 
G01 X-12.4054 Y8.3022 
G01 X-12.5037 Y8.1669 
G01 X-12.5797 Y8.0179 
G01 X-12.6313 Y7.8588 
G01 X-12.6575 Y7.6936 
G01 X-12.6575 Y7.5264 
G01 X-12.6313 Y7.3612 
G01 X-12.5797 Y7.2021 
G01 X-12.5037 Y7.0531 
G01 X-12.4054 Y6.9178 
G01 X-12.2872 Y6.7996 
G01 X-12.1519 Y6.7013 
G01 X-12.1489 Y5.7989 
G01 X-14.0408 Y5.7989 
G01 X-14.1797 Y5.7713 
G01 X-14.3105 Y5.7171 
G01 X-14.4283 Y5.6384 
G01 X-14.5284 Y5.5383 
G01 X-14.6071 Y5.4205 
G01 X-14.6613 Y5.2897 
G01 X-14.6889 Y5.1508 
G01 X-14.6889 Y4.5289 
G01 X-19.4357 Y4.5289 
G01 X-19.4520 Y4.5514 
G01 X-19.5786 Y4.6780 
G01 X-19.7236 Y4.7833 
G01 X-19.8832 Y4.8646 
G01 X-20.0535 Y4.9200 
G01 X-20.2304 Y4.9480 
G01 X-20.4096 Y4.9480 
G01 X-20.5865 Y4.9200 
G01 X-20.7568 Y4.8646 
G01 X-20.9164 Y4.7833 
G01 X-21.0614 Y4.6780 
G01 X-21.1880 Y4.5514 
G01 X-21.2933 Y4.4064 
G01 X-21.3746 Y4.2468 
G01 X-21.4300 Y4.0765 
G01 X-21.4580 Y3.8996 
G01 X-21.4580 Y3.7204 
G01 X-21.4300 Y3.5435 
G01 X-21.3746 Y3.3732 
G01 X-21.2933 Y3.2136 
G01 X-21.1880 Y3.0686 
G01 X-21.0614 Y2.9420 
G01 X-20.9164 Y2.8367 
G01 X-20.7568 Y2.7554 
G01 X-20.5865 Y2.7000 
G01 X-20.4096 Y2.6720 
G01 X-20.2304 Y2.6720 
G01 X-20.0535 Y2.7000 
G01 X-19.8832 Y2.7554 
G01 X-19.7236 Y2.8367 
G01 X-19.5786 Y2.9420 
G01 X-19.4520 Y3.0686 
G01 X-19.4357 Y3.0911 
G01 X-13.8992 Y3.0911 
G01 X-13.7603 Y3.1187 
G01 X-13.6295 Y3.1729 
G01 X-13.5117 Y3.2516 
G01 X-13.4116 Y3.3517 
G01 X-13.3329 Y3.4695 
G01 X-13.2787 Y3.6003 
G01 X-13.2511 Y3.7392 
G01 X-13.2511 Y4.3611 
G01 X-11.3592 Y4.3611 
G01 X-11.2203 Y4.3887 
G01 X-11.0895 Y4.4429 
G01 X-10.9717 Y4.5216 
G01 X-10.8716 Y4.6217 
G00 Z5.0000 
G00 X-3.2128 Y0.7799 
G01 Z-0.0800 F300.00 
G01 X-3.1286 Y0.9058 F400.00 
G01 X-3.0706 Y1.0457 
G01 X-3.0411 Y1.1943 
G01 X-3.0411 Y8.7057 
G01 X-3.0706 Y8.8543 
G01 X-3.1286 Y8.9942 
G01 X-3.2128 Y9.1201 
G01 X-3.3199 Y9.2272 
G01 X-3.4458 Y9.3114 
G01 X-3.5857 Y9.3694 
G01 X-3.7343 Y9.3989 
G01 X-8.2506 Y9.3989 
G01 X-8.3303 Y9.4786 
G01 X-8.4719 Y9.5815 
G01 X-8.6064 Y9.6500 
G01 X-8.4719 Y9.7185 
G01 X-8.3303 Y9.8214 
G01 X-8.2064 Y9.9453 
G01 X-8.1477 Y10.0261 
G01 X-3.7343 Y10.0261 
G01 X-3.5857 Y10.0556 
G01 X-3.4458 Y10.1136 
G01 X-3.3199 Y10.1978 
G01 X-3.2128 Y10.3049 
G01 X-3.1286 Y10.4308 
G01 X-3.0706 Y10.5707 
G01 X-3.0411 Y10.7193 
G01 X-3.0411 Y19.1257 
G01 X-3.0706 Y19.2743 
G01 X-3.1286 Y19.4142 
G01 X-3.2128 Y19.5401 
G01 X-3.3199 Y19.6472 
G01 X-3.4458 Y19.7314 
G01 X-3.5857 Y19.7894 
G01 X-3.7343 Y19.8189 
G01 X-22.9357 Y19.8189 
G01 X-23.0843 Y19.7894 
G01 X-23.2242 Y19.7314 
G01 X-23.3501 Y19.6472 
G01 X-23.4572 Y19.5401 
G01 X-23.5414 Y19.4142 
G01 X-23.5994 Y19.2743 
G01 X-23.6289 Y19.1257 
G01 X-23.6289 Y11.3543 
G01 X-23.5994 Y11.2057 
G01 X-23.5414 Y11.0658 
G01 X-23.4572 Y10.9399 
G01 X-23.3501 Y10.8328 
G01 X-23.2242 Y10.7486 
G01 X-23.0843 Y10.6906 
G01 X-22.9357 Y10.6611 
G01 X-21.2298 Y10.6611 
G01 X-21.0939 Y10.5238 
G01 X-20.9426 Y10.4139 
G01 X-20.7760 Y10.3290 
G01 X-20.5982 Y10.2713 
G01 X-20.4135 Y10.2420 
G01 X-20.2265 Y10.2420 
G01 X-20.0418 Y10.2713 
G01 X-19.8640 Y10.3290 
G01 X-19.6974 Y10.4139 
G01 X-19.5461 Y10.5238 
G01 X-19.4138 Y10.6561 
G01 X-19.3039 Y10.8074 
G01 X-19.2190 Y10.9740 
G01 X-19.1613 Y11.1518 
G01 X-19.1320 Y11.3365 
G01 X-19.1320 Y11.5235 
G01 X-19.1613 Y11.7082 
G01 X-19.2190 Y11.8860 
G01 X-19.3039 Y12.0526 
G01 X-19.4138 Y12.2039 
G01 X-19.5461 Y12.3362 
G01 X-19.6974 Y12.4461 
G01 X-19.8640 Y12.5310 
G01 X-20.0418 Y12.5887 
G01 X-20.2265 Y12.6180 
G01 X-20.4135 Y12.6180 
G01 X-20.5982 Y12.5887 
G01 X-20.7760 Y12.5310 
G01 X-20.9426 Y12.4461 
G01 X-21.0939 Y12.3362 
G01 X-21.2262 Y12.2039 
G01 X-22.0911 Y12.1989 
G01 X-22.0911 Y18.2811 
G01 X-4.5789 Y18.2811 
G01 X-4.5789 Y11.5639 
G01 X-8.3926 Y11.5639 
G01 X-8.4719 Y11.6215 
G01 X-8.6064 Y11.6900 
G01 X-8.4719 Y11.7585 
G01 X-8.3303 Y11.8614 
G01 X-8.2064 Y11.9853 
G01 X-8.1035 Y12.1269 
G01 X-8.0240 Y12.2829 
G01 X-7.9699 Y12.4495 
G01 X-7.9425 Y12.6224 
G01 X-7.9425 Y12.7976 
G01 X-7.9699 Y12.9705 
G01 X-8.0240 Y13.1371 
G01 X-8.1035 Y13.2931 
G01 X-8.2064 Y13.4347 
G01 X-8.2861 Y13.5144 
G01 X-8.2861 Y14.0457 
G01 X-8.3156 Y14.1943 
G01 X-8.3736 Y14.3342 
G01 X-8.4578 Y14.4601 
G01 X-8.5649 Y14.5672 
G01 X-8.6908 Y14.6514 
G01 X-8.8307 Y14.7094 
G01 X-8.9793 Y14.7389 
G01 X-9.3911 Y14.7389 
G01 X-9.3911 Y16.5857 
G01 X-9.4206 Y16.7343 
G01 X-9.4786 Y16.8742 
G01 X-9.5628 Y17.0001 
G01 X-9.6699 Y17.1072 
G01 X-9.7958 Y17.1914 
G01 X-9.9357 Y17.2493 
G01 X-10.0843 Y17.2789 
G01 X-19.1320 Y17.2789 
G01 X-19.1320 Y17.3832 
G01 X-19.1567 Y17.4754 
G01 X-19.2044 Y17.5581 
G01 X-19.2719 Y17.6256 
G01 X-19.3546 Y17.6733 
G01 X-19.4468 Y17.6980 
G01 X-21.1932 Y17.6980 
G01 X-21.2854 Y17.6733 
G01 X-21.3681 Y17.6256 
G01 X-21.4356 Y17.5581 
G01 X-21.4833 Y17.4754 
G01 X-21.5080 Y17.3832 
G01 X-21.5080 Y15.6368 
G01 X-21.4833 Y15.5446 
G01 X-21.4356 Y15.4619 
G01 X-21.3681 Y15.3944 
G01 X-21.2854 Y15.3467 
G01 X-21.1932 Y15.3220 
G01 X-19.4468 Y15.3220 
G01 X-19.3546 Y15.3467 
G01 X-19.2719 Y15.3944 
G01 X-19.2044 Y15.4619 
G01 X-19.1567 Y15.5446 
G01 X-19.1320 Y15.6368 
G01 X-19.1320 Y15.7411 
G01 X-10.9289 Y15.7411 
G01 X-10.9289 Y13.8943 
G01 X-10.8994 Y13.7457 
G01 X-10.8414 Y13.6058 
G01 X-10.7572 Y13.4799 
G01 X-10.6501 Y13.3728 
G01 X-10.5242 Y13.2886 
G01 X-10.3843 Y13.2306 
G01 X-10.2357 Y13.2011 
G01 X-10.0534 Y13.2011 
G01 X-10.0860 Y13.1371 
G01 X-10.1401 Y12.9705 
G01 X-10.1675 Y12.7976 
G01 X-10.1675 Y12.6224 
G01 X-10.1401 Y12.4495 
G01 X-10.0860 Y12.2829 
G01 X-10.0065 Y12.1269 
G01 X-9.9036 Y11.9853 
G01 X-9.7797 Y11.8614 
G01 X-9.6381 Y11.7585 
G01 X-9.5036 Y11.6900 
G01 X-9.6381 Y11.6215 
G01 X-9.7797 Y11.5186 
G01 X-9.9036 Y11.3947 
G01 X-10.0065 Y11.2531 
G01 X-10.0860 Y11.0971 
G01 X-10.1401 Y10.9305 
G01 X-10.1675 Y10.7576 
G01 X-10.1675 Y10.5824 
G01 X-10.1401 Y10.4095 
G01 X-10.0860 Y10.2429 
G01 X-10.0065 Y10.0869 
G01 X-9.9036 Y9.9453 
G01 X-9.7797 Y9.8214 
G01 X-9.6381 Y9.7185 
G01 X-9.5036 Y9.6500 
G01 X-9.6381 Y9.5815 
G01 X-9.7797 Y9.4786 
G01 X-9.9036 Y9.3547 
G01 X-10.0065 Y9.2131 
G01 X-10.0860 Y9.0571 
G01 X-10.1401 Y8.8905 
G01 X-10.1675 Y8.7176 
G01 X-10.1675 Y8.5424 
G01 X-10.1401 Y8.3695 
G01 X-10.0860 Y8.2029 
G01 X-10.0065 Y8.0469 
G01 X-9.9036 Y7.9053 
G01 X-9.7797 Y7.7814 
G01 X-9.6381 Y7.6785 
G01 X-9.4821 Y7.5990 
G01 X-9.3155 Y7.5449 
G01 X-9.1426 Y7.5175 
G01 X-8.9674 Y7.5175 
G01 X-8.7945 Y7.5449 
G01 X-8.6279 Y7.5990 
G01 X-8.4719 Y7.6785 
G01 X-8.3303 Y7.7814 
G01 X-8.2506 Y7.8611 
G01 X-4.5789 Y7.8611 
G01 X-4.5789 Y2.0389 
G01 X-22.0911 Y2.0389 
G01 X-22.0911 Y5.5811 
G01 X-21.2298 Y5.5811 
G01 X-21.0939 Y5.4438 
G01 X-20.9426 Y5.3339 
G01 X-20.7760 Y5.2490 
G01 X-20.5982 Y5.1913 
G01 X-20.4135 Y5.1620 
G01 X-20.2265 Y5.1620 
G01 X-20.0418 Y5.1913 
G01 X-19.8640 Y5.2490 
G01 X-19.6974 Y5.3339 
G01 X-19.5461 Y5.4438 
G01 X-19.4138 Y5.5761 
G01 X-19.3039 Y5.7274 
G01 X-19.2190 Y5.8940 
G01 X-19.1613 Y6.0718 
G01 X-19.1320 Y6.2565 
G01 X-19.1320 Y6.4435 
G01 X-19.1613 Y6.6282 
G01 X-19.2190 Y6.8060 
G01 X-19.3039 Y6.9726 
G01 X-19.4138 Y7.1239 
G01 X-19.5461 Y7.2562 
G01 X-19.6974 Y7.3661 
G01 X-19.8640 Y7.4510 
G01 X-20.0418 Y7.5087 
G01 X-20.2265 Y7.5380 
G01 X-20.4135 Y7.5380 
G01 X-20.5982 Y7.5087 
G01 X-20.7760 Y7.4510 
G01 X-20.9426 Y7.3661 
G01 X-21.0939 Y7.2562 
G01 X-21.2262 Y7.1239 
G01 X-22.9357 Y7.1189 
G01 X-23.0843 Y7.0894 
G01 X-23.2242 Y7.0314 
G01 X-23.3501 Y6.9472 
G01 X-23.4572 Y6.8401 
G01 X-23.5414 Y6.7142 
G01 X-23.5994 Y6.5743 
G01 X-23.6289 Y6.4257 
G01 X-23.6289 Y1.1943 
G01 X-23.5994 Y1.0457 
G01 X-23.5414 Y0.9058 
G01 X-23.4572 Y0.7799 
G01 X-23.3501 Y0.6728 
G01 X-23.2242 Y0.5886 
G01 X-23.0843 Y0.5306 
G01 X-22.9357 Y0.5011 
G01 X-3.7343 Y0.5011 
G01 X-3.5857 Y0.5306 
G01 X-3.4458 Y0.5886 
G01 X-3.3199 Y0.6728 
G01 X-3.2128 Y0.7799 
G00 Z5.0000 
G00 X-10.8328 Y4.5899 
G01 Z-0.0800 F300.00 
G01 X-10.7486 Y4.7158 F400.00 
G01 X-10.6906 Y4.8557 
G01 X-10.6611 Y5.0043 
G01 X-10.6611 Y7.0027 
G01 X-10.6435 Y7.0269 
G01 X-10.5640 Y7.1829 
G01 X-10.5099 Y7.3495 
G01 X-10.4825 Y7.5224 
G01 X-10.4825 Y7.6976 
G01 X-10.5099 Y7.8705 
G01 X-10.5640 Y8.0371 
G01 X-10.6435 Y8.1931 
G01 X-10.7464 Y8.3347 
G01 X-10.8703 Y8.4586 
G01 X-11.0119 Y8.5615 
G01 X-11.1464 Y8.6300 
G01 X-11.0119 Y8.6985 
G01 X-10.8703 Y8.8014 
G01 X-10.7464 Y8.9253 
G01 X-10.6435 Y9.0669 
G01 X-10.5640 Y9.2229 
G01 X-10.5099 Y9.3895 
G01 X-10.4825 Y9.5624 
G01 X-10.4825 Y9.7376 
G01 X-10.5099 Y9.9105 
G01 X-10.5640 Y10.0770 
G01 X-10.6435 Y10.2331 
G01 X-10.7464 Y10.3747 
G01 X-10.8703 Y10.4986 
G01 X-11.0119 Y10.6015 
G01 X-11.1464 Y10.6700 
G01 X-11.0119 Y10.7385 
G01 X-10.8703 Y10.8414 
G01 X-10.7464 Y10.9653 
G01 X-10.6435 Y11.1069 
G01 X-10.5640 Y11.2629 
G01 X-10.5099 Y11.4295 
G01 X-10.4825 Y11.6024 
G01 X-10.4825 Y11.7776 
G01 X-10.5099 Y11.9505 
G01 X-10.5640 Y12.1171 
G01 X-10.6435 Y12.2731 
G01 X-10.6611 Y12.2973 
G01 X-10.6611 Y12.7757 
G01 X-10.6906 Y12.9243 
G01 X-10.7486 Y13.0642 
G01 X-10.8328 Y13.1901 
G01 X-10.9399 Y13.2972 
G01 X-11.0658 Y13.3814 
G01 X-11.2057 Y13.4394 
G01 X-11.3543 Y13.4689 
G01 X-13.2011 Y13.4689 
G01 X-13.2011 Y14.0457 
G01 X-13.2306 Y14.1943 
G01 X-13.2886 Y14.3342 
G01 X-13.3728 Y14.4601 
G01 X-13.4799 Y14.5672 
G01 X-13.6058 Y14.6514 
G01 X-13.7457 Y14.7094 
G01 X-13.8943 Y14.7389 
G01 X-19.4102 Y14.7389 
G01 X-19.5461 Y14.8762 
G01 X-19.6974 Y14.9861 
G01 X-19.8640 Y15.0710 
G01 X-20.0418 Y15.1287 
G01 X-20.2265 Y15.1580 
G01 X-20.4135 Y15.1580 
G01 X-20.5982 Y15.1287 
G01 X-20.7760 Y15.0710 
G01 X-20.9426 Y14.9861 
G01 X-21.0939 Y14.8762 
G01 X-21.2262 Y14.7439 
G01 X-21.3361 Y14.5926 
G01 X-21.4210 Y14.4260 
G01 X-21.4787 Y14.2482 
G01 X-21.5080 Y14.0635 
G01 X-21.5080 Y13.8765 
G01 X-21.4787 Y13.6918 
G01 X-21.4210 Y13.5140 
G01 X-21.3361 Y13.3474 
G01 X-21.2262 Y13.1961 
G01 X-21.0939 Y13.0638 
G01 X-20.9426 Y12.9539 
G01 X-20.7760 Y12.8690 
G01 X-20.5982 Y12.8113 
G01 X-20.4135 Y12.7820 
G01 X-20.2265 Y12.7820 
G01 X-20.0418 Y12.8113 
G01 X-19.8640 Y12.8690 
G01 X-19.6974 Y12.9539 
G01 X-19.5461 Y13.0638 
G01 X-19.4138 Y13.1961 
G01 X-14.7389 Y13.2011 
G01 X-14.7389 Y12.6243 
G01 X-14.7094 Y12.4757 
G01 X-14.6514 Y12.3358 
G01 X-14.5672 Y12.2099 
G01 X-14.4601 Y12.1028 
G01 X-14.3342 Y12.0186 
G01 X-14.1943 Y11.9606 
G01 X-14.0457 Y11.9311 
G01 X-12.6832 Y11.9311 
G01 X-12.7075 Y11.7776 
G01 X-12.7075 Y11.6024 
G01 X-12.6801 Y11.4295 
G01 X-12.6260 Y11.2629 
G01 X-12.5465 Y11.1069 
G01 X-12.4436 Y10.9653 
G01 X-12.3197 Y10.8414 
G01 X-12.1781 Y10.7385 
G01 X-12.0436 Y10.6700 
G01 X-12.1781 Y10.6015 
G01 X-12.3197 Y10.4986 
G01 X-12.3994 Y10.4189 
G01 X-14.0457 Y10.4189 
G01 X-14.1943 Y10.3894 
G01 X-14.3342 Y10.3314 
G01 X-14.4601 Y10.2472 
G01 X-14.5672 Y10.1401 
G01 X-14.6514 Y10.0142 
G01 X-14.7094 Y9.8743 
G01 X-14.7389 Y9.7257 
G01 X-14.7389 Y9.6589 
G01 X-19.4102 Y9.6589 
G01 X-19.5461 Y9.7962 
G01 X-19.6974 Y9.9061 
G01 X-19.8640 Y9.9910 
G01 X-20.0418 Y10.0487 
G01 X-20.2265 Y10.0780 
G01 X-20.4135 Y10.0780 
G01 X-20.5982 Y10.0487 
G01 X-20.7760 Y9.9910 
G01 X-20.9426 Y9.9061 
G01 X-21.0939 Y9.7962 
G01 X-21.2262 Y9.6639 
G01 X-21.3361 Y9.5126 
G01 X-21.4210 Y9.3460 
G01 X-21.4787 Y9.1682 
G01 X-21.5080 Y8.9835 
G01 X-21.5080 Y8.7965 
G01 X-21.4787 Y8.6118 
G01 X-21.4210 Y8.4340 
G01 X-21.3361 Y8.2674 
G01 X-21.2262 Y8.1161 
G01 X-21.0939 Y7.9838 
G01 X-20.9426 Y7.8739 
G01 X-20.7760 Y7.7890 
G01 X-20.5982 Y7.7313 
G01 X-20.4135 Y7.7020 
G01 X-20.2265 Y7.7020 
G01 X-20.0418 Y7.7313 
G01 X-19.8640 Y7.7890 
G01 X-19.6974 Y7.8739 
G01 X-19.5461 Y7.9838 
G01 X-19.4138 Y8.1161 
G01 X-13.8943 Y8.1211 
G01 X-13.7457 Y8.1506 
G01 X-13.6058 Y8.2086 
G01 X-13.4799 Y8.2928 
G01 X-13.3728 Y8.3999 
G01 X-13.2886 Y8.5258 
G01 X-13.2306 Y8.6657 
G01 X-13.2011 Y8.8143 
G01 X-13.2011 Y8.8811 
G01 X-12.3994 Y8.8811 
G01 X-12.3197 Y8.8014 
G01 X-12.1781 Y8.6985 
G01 X-12.0436 Y8.6300 
G01 X-12.1781 Y8.5615 
G01 X-12.3197 Y8.4586 
G01 X-12.4436 Y8.3347 
G01 X-12.5465 Y8.1931 
G01 X-12.6260 Y8.0371 
G01 X-12.6801 Y7.8705 
G01 X-12.7075 Y7.6976 
G01 X-12.7075 Y7.5224 
G01 X-12.6801 Y7.3495 
G01 X-12.6260 Y7.1829 
G01 X-12.5465 Y7.0269 
G01 X-12.4436 Y6.8853 
G01 X-12.3197 Y6.7614 
G01 X-12.1989 Y6.6736 
G01 X-12.1989 Y5.8489 
G01 X-14.0457 Y5.8489 
G01 X-14.1943 Y5.8194 
G01 X-14.3342 Y5.7614 
G01 X-14.4601 Y5.6772 
G01 X-14.5672 Y5.5701 
G01 X-14.6514 Y5.4442 
G01 X-14.7094 Y5.3043 
G01 X-14.7389 Y5.1557 
G01 X-14.7389 Y4.5789 
G01 X-19.4102 Y4.5789 
G01 X-19.5461 Y4.7162 
G01 X-19.6974 Y4.8261 
G01 X-19.8640 Y4.9110 
G01 X-20.0418 Y4.9687 
G01 X-20.2265 Y4.9980 
G01 X-20.4135 Y4.9980 
G01 X-20.5982 Y4.9687 
G01 X-20.7760 Y4.9110 
G01 X-20.9426 Y4.8261 
G01 X-21.0939 Y4.7162 
G01 X-21.2262 Y4.5839 
G01 X-21.3361 Y4.4326 
G01 X-21.4210 Y4.2660 
G01 X-21.4787 Y4.0882 
G01 X-21.5080 Y3.9035 
G01 X-21.5080 Y3.7165 
G01 X-21.4787 Y3.5318 
G01 X-21.4210 Y3.3540 
G01 X-21.3361 Y3.1874 
G01 X-21.2262 Y3.0361 
G01 X-21.0939 Y2.9038 
G01 X-20.9426 Y2.7939 
G01 X-20.7760 Y2.7090 
G01 X-20.5982 Y2.6513 
G01 X-20.4135 Y2.6220 
G01 X-20.2265 Y2.6220 
G01 X-20.0418 Y2.6513 
G01 X-19.8640 Y2.7090 
G01 X-19.6974 Y2.7939 
G01 X-19.5461 Y2.9038 
G01 X-19.4138 Y3.0361 
G01 X-13.8943 Y3.0411 
G01 X-13.7457 Y3.0706 
G01 X-13.6058 Y3.1286 
G01 X-13.4799 Y3.2128 
G01 X-13.3728 Y3.3199 
G01 X-13.2886 Y3.4458 
G01 X-13.2306 Y3.5857 
G01 X-13.2011 Y3.7343 
G01 X-13.2011 Y4.3111 
G01 X-11.3543 Y4.3111 
G01 X-11.2057 Y4.3406 
G01 X-11.0658 Y4.3986 
G01 X-10.9399 Y4.4828 
G01 X-10.8328 Y4.5899 
G00 Z5.0000 
G00 X-3.1739 Y0.7480 
G01 Z-0.0800 F300.00 
G01 X-3.0843 Y0.8821 F400.00 
G01 X-3.0226 Y1.0311 
G01 X-2.9911 Y1.1893 
G01 X-2.9911 Y8.7107 
G01 X-3.0226 Y8.8689 
G01 X-3.0843 Y9.0179 
G01 X-3.1739 Y9.1520 
G01 X-3.2880 Y9.2661 
G01 X-3.4221 Y9.3557 
G01 X-3.5711 Y9.4174 
G01 X-3.7293 Y9.4489 
G01 X-8.2299 Y9.4489 
G01 X-8.2977 Y9.5167 
G01 X-8.4457 Y9.6243 
G01 X-8.4962 Y9.6500 
G01 X-8.4457 Y9.6757 
G01 X-8.2977 Y9.7833 
G01 X-8.1683 Y9.9127 
G01 X-8.1222 Y9.9761 
G01 X-3.7293 Y9.9761 
G01 X-3.5711 Y10.0076 
G01 X-3.4221 Y10.0693 
G01 X-3.2880 Y10.1589 
G01 X-3.1739 Y10.2730 
G01 X-3.0843 Y10.4071 
G01 X-3.0226 Y10.5561 
G01 X-2.9911 Y10.7143 
G01 X-2.9911 Y19.1307 
G01 X-3.0226 Y19.2889 
G01 X-3.0843 Y19.4379 
G01 X-3.1739 Y19.5720 
G01 X-3.2880 Y19.6861 
G01 X-3.4221 Y19.7757 
G01 X-3.5711 Y19.8374 
G01 X-3.7293 Y19.8689 
G01 X-22.9407 Y19.8689 
G01 X-23.0989 Y19.8374 
G01 X-23.2479 Y19.7757 
G01 X-23.3820 Y19.6861 
G01 X-23.4961 Y19.5720 
G01 X-23.5857 Y19.4379 
G01 X-23.6474 Y19.2889 
G01 X-23.6789 Y19.1307 
G01 X-23.6789 Y11.3493 
G01 X-23.6474 Y11.1911 
G01 X-23.5857 Y11.0421 
G01 X-23.4961 Y10.9080 
G01 X-23.3820 Y10.7939 
G01 X-23.2479 Y10.7043 
G01 X-23.0989 Y10.6426 
G01 X-22.9407 Y10.6111 
G01 X-21.2519 Y10.6111 
G01 X-21.1265 Y10.4857 
G01 X-20.9689 Y10.3712 
G01 X-20.7952 Y10.2827 
G01 X-20.6099 Y10.2225 
G01 X-20.4174 Y10.1920 
G01 X-20.2226 Y10.1920 
G01 X-20.0301 Y10.2225 
G01 X-19.8448 Y10.2827 
G01 X-19.6711 Y10.3712 
G01 X-19.5135 Y10.4857 
G01 X-19.3757 Y10.6235 
G01 X-19.2612 Y10.7811 
G01 X-19.1727 Y10.9548 
G01 X-19.1125 Y11.1401 
G01 X-19.0820 Y11.3326 
G01 X-19.0820 Y11.5274 
G01 X-19.1125 Y11.7199 
G01 X-19.1727 Y11.9052 
G01 X-19.2612 Y12.0789 
G01 X-19.3757 Y12.2365 
G01 X-19.5135 Y12.3743 
G01 X-19.6711 Y12.4888 
G01 X-19.8448 Y12.5773 
G01 X-20.0301 Y12.6375 
G01 X-20.2226 Y12.6680 
G01 X-20.4174 Y12.6680 
G01 X-20.6099 Y12.6375 
G01 X-20.7952 Y12.5773 
G01 X-20.9689 Y12.4888 
G01 X-21.1265 Y12.3743 
G01 X-21.2519 Y12.2489 
G01 X-22.0411 Y12.2489 
G01 X-22.0411 Y18.2311 
G01 X-4.6289 Y18.2311 
G01 X-4.6289 Y11.6139 
G01 X-8.3764 Y11.6139 
G01 X-8.4457 Y11.6643 
G01 X-8.4962 Y11.6900 
G01 X-8.4457 Y11.7157 
G01 X-8.2977 Y11.8233 
G01 X-8.1683 Y11.9527 
G01 X-8.0607 Y12.1007 
G01 X-7.9777 Y12.2638 
G01 X-7.9211 Y12.4378 
G01 X-7.8925 Y12.6185 
G01 X-7.8925 Y12.8015 
G01 X-7.9211 Y12.9822 
G01 X-7.9777 Y13.1562 
G01 X-8.0607 Y13.3193 
G01 X-8.1683 Y13.4673 
G01 X-8.2361 Y13.5351 
G01 X-8.2361 Y14.0507 
G01 X-8.2676 Y14.2089 
G01 X-8.3293 Y14.3579 
G01 X-8.4189 Y14.4920 
G01 X-8.5330 Y14.6061 
G01 X-8.6671 Y14.6957 
G01 X-8.8161 Y14.7574 
G01 X-8.9743 Y14.7889 
G01 X-9.3411 Y14.7889 
G01 X-9.3411 Y16.5907 
G01 X-9.3726 Y16.7489 
G01 X-9.4343 Y16.8979 
G01 X-9.5239 Y17.0320 
G01 X-9.6380 Y17.1461 
G01 X-9.7721 Y17.2357 
G01 X-9.9211 Y17.2974 
G01 X-10.0793 Y17.3289 
G01 X-19.0820 Y17.3289 
G01 X-19.0820 Y17.3898 
G01 X-19.1101 Y17.4947 
G01 X-19.1644 Y17.5888 
G01 X-19.2412 Y17.6656 
G01 X-19.3353 Y17.7199 
G01 X-19.4402 Y17.7480 
G01 X-21.1998 Y17.7480 
G01 X-21.3047 Y17.7199 
G01 X-21.3988 Y17.6656 
G01 X-21.4756 Y17.5888 
G01 X-21.5299 Y17.4947 
G01 X-21.5580 Y17.3898 
G01 X-21.5580 Y15.6302 
G01 X-21.5299 Y15.5253 
G01 X-21.4756 Y15.4312 
G01 X-21.3988 Y15.3544 
G01 X-21.3047 Y15.3001 
G01 X-21.1998 Y15.2720 
G01 X-19.4402 Y15.2720 
G01 X-19.3353 Y15.3001 
G01 X-19.2412 Y15.3544 
G01 X-19.1644 Y15.4312 
G01 X-19.1101 Y15.5253 
G01 X-19.0820 Y15.6302 
G01 X-19.0820 Y15.6911 
G01 X-10.9789 Y15.6911 
G01 X-10.9789 Y13.8893 
G01 X-10.9474 Y13.7311 
G01 X-10.8857 Y13.5821 
G01 X-10.7961 Y13.4480 
G01 X-10.6820 Y13.3339 
G01 X-10.5479 Y13.2443 
G01 X-10.3989 Y13.1826 
G01 X-10.2407 Y13.1511 
G01 X-10.1340 Y13.1511 
G01 X-10.1889 Y12.9822 
G01 X-10.2175 Y12.8015 
G01 X-10.2175 Y12.6185 
G01 X-10.1889 Y12.4378 
G01 X-10.1323 Y12.2638 
G01 X-10.0493 Y12.1007 
G01 X-9.9417 Y11.9527 
G01 X-9.8123 Y11.8233 
G01 X-9.6643 Y11.7157 
G01 X-9.6138 Y11.6900 
G01 X-9.6643 Y11.6643 
G01 X-9.8123 Y11.5567 
G01 X-9.9417 Y11.4273 
G01 X-10.0493 Y11.2793 
G01 X-10.1323 Y11.1162 
G01 X-10.1889 Y10.9422 
G01 X-10.2175 Y10.7615 
G01 X-10.2175 Y10.5785 
G01 X-10.1889 Y10.3978 
G01 X-10.1323 Y10.2238 
G01 X-10.0493 Y10.0607 
G01 X-9.9417 Y9.9127 
G01 X-9.8123 Y9.7833 
G01 X-9.6643 Y9.6757 
G01 X-9.6138 Y9.6500 
G01 X-9.6643 Y9.6243 
G01 X-9.8123 Y9.5167 
G01 X-9.9417 Y9.3873 
G01 X-10.0493 Y9.2393 
G01 X-10.1323 Y9.0762 
G01 X-10.1889 Y8.9022 
G01 X-10.2175 Y8.7215 
G01 X-10.2175 Y8.5385 
G01 X-10.1889 Y8.3578 
G01 X-10.1323 Y8.1838 
G01 X-10.0493 Y8.0207 
G01 X-9.9417 Y7.8727 
G01 X-9.8123 Y7.7433 
G01 X-9.6643 Y7.6357 
G01 X-9.5012 Y7.5527 
G01 X-9.3272 Y7.4961 
G01 X-9.1465 Y7.4675 
G01 X-8.9635 Y7.4675 
G01 X-8.7828 Y7.4961 
G01 X-8.6088 Y7.5527 
G01 X-8.4457 Y7.6357 
G01 X-8.2977 Y7.7433 
G01 X-8.2299 Y7.8111 
G01 X-4.6289 Y7.8111 
G01 X-4.6289 Y2.0889 
G01 X-22.0411 Y2.0889 
G01 X-22.0411 Y5.5311 
G01 X-21.2519 Y5.5311 
G01 X-21.1265 Y5.4057 
G01 X-20.9689 Y5.2912 
G01 X-20.7952 Y5.2027 
G01 X-20.6099 Y5.1425 
G01 X-20.4174 Y5.1120 
G01 X-20.2226 Y5.1120 
G01 X-20.0301 Y5.1425 
G01 X-19.8448 Y5.2027 
G01 X-19.6711 Y5.2912 
G01 X-19.5135 Y5.4057 
G01 X-19.3757 Y5.5435 
G01 X-19.2612 Y5.7011 
G01 X-19.1727 Y5.8748 
G01 X-19.1125 Y6.0601 
G01 X-19.0820 Y6.2526 
G01 X-19.0820 Y6.4474 
G01 X-19.1125 Y6.6399 
G01 X-19.1727 Y6.8252 
G01 X-19.2612 Y6.9989 
G01 X-19.3757 Y7.1565 
G01 X-19.5135 Y7.2943 
G01 X-19.6711 Y7.4088 
G01 X-19.8448 Y7.4973 
G01 X-20.0301 Y7.5575 
G01 X-20.2226 Y7.5880 
G01 X-20.4174 Y7.5880 
G01 X-20.6099 Y7.5575 
G01 X-20.7952 Y7.4973 
G01 X-20.9689 Y7.4088 
G01 X-21.1265 Y7.2943 
G01 X-21.2519 Y7.1689 
G01 X-22.9407 Y7.1689 
G01 X-23.0989 Y7.1374 
G01 X-23.2479 Y7.0757 
G01 X-23.3820 Y6.9861 
G01 X-23.4961 Y6.8720 
G01 X-23.5857 Y6.7379 
G01 X-23.6474 Y6.5889 
G01 X-23.6789 Y6.4307 
G01 X-23.6789 Y1.1893 
G01 X-23.6474 Y1.0311 
G01 X-23.5857 Y0.8821 
G01 X-23.4961 Y0.7480 
G01 X-23.3820 Y0.6339 
G01 X-23.2479 Y0.5443 
G01 X-23.0989 Y0.4826 
G01 X-22.9407 Y0.4511 
G01 X-3.7293 Y0.4511 
G01 X-3.5711 Y0.4826 
G01 X-3.4221 Y0.5443 
G01 X-3.2880 Y0.6339 
G01 X-3.1739 Y0.7480 
G00 Z5.0000 
G00 X-10.7939 Y4.5580 
G01 Z-0.0800 F300.00 
G01 X-10.7043 Y4.6921 F400.00 
G01 X-10.6426 Y4.8411 
G01 X-10.6111 Y4.9993 
G01 X-10.6111 Y6.9865 
G01 X-10.6007 Y7.0007 
G01 X-10.5177 Y7.1638 
G01 X-10.4611 Y7.3378 
G01 X-10.4325 Y7.5185 
G01 X-10.4325 Y7.7015 
G01 X-10.4611 Y7.8822 
G01 X-10.5177 Y8.0562 
G01 X-10.6007 Y8.2193 
G01 X-10.7083 Y8.3673 
G01 X-10.8377 Y8.4967 
G01 X-10.9857 Y8.6043 
G01 X-11.0362 Y8.6300 
G01 X-10.9857 Y8.6557 
G01 X-10.8377 Y8.7633 
G01 X-10.7083 Y8.8927 
G01 X-10.6007 Y9.0407 
G01 X-10.5177 Y9.2038 
G01 X-10.4611 Y9.3778 
G01 X-10.4325 Y9.5585 
G01 X-10.4325 Y9.7415 
G01 X-10.4611 Y9.9222 
G01 X-10.5177 Y10.0962 
G01 X-10.6007 Y10.2593 
G01 X-10.7083 Y10.4073 
G01 X-10.8377 Y10.5367 
G01 X-10.9857 Y10.6443 
G01 X-11.0362 Y10.6700 
G01 X-10.9857 Y10.6957 
G01 X-10.8377 Y10.8033 
G01 X-10.7083 Y10.9327 
G01 X-10.6007 Y11.0807 
G01 X-10.5177 Y11.2438 
G01 X-10.4611 Y11.4178 
G01 X-10.4325 Y11.5985 
G01 X-10.4325 Y11.7815 
G01 X-10.4611 Y11.9622 
G01 X-10.5177 Y12.1362 
G01 X-10.6007 Y12.2993 
G01 X-10.6111 Y12.3135 
G01 X-10.6111 Y12.7807 
G01 X-10.6426 Y12.9389 
G01 X-10.7043 Y13.0879 
G01 X-10.7939 Y13.2220 
G01 X-10.9080 Y13.3361 
G01 X-11.0421 Y13.4257 
G01 X-11.1911 Y13.4874 
G01 X-11.3493 Y13.5189 
G01 X-13.1511 Y13.5189 
G01 X-13.1511 Y14.0507 
G01 X-13.1826 Y14.2089 
G01 X-13.2443 Y14.3579 
G01 X-13.3339 Y14.4920 
G01 X-13.4480 Y14.6061 
G01 X-13.5821 Y14.6957 
G01 X-13.7311 Y14.7574 
G01 X-13.8893 Y14.7889 
G01 X-19.3881 Y14.7889 
G01 X-19.5135 Y14.9143 
G01 X-19.6711 Y15.0288 
G01 X-19.8448 Y15.1173 
G01 X-20.0301 Y15.1775 
G01 X-20.2226 Y15.2080 
G01 X-20.4174 Y15.2080 
G01 X-20.6099 Y15.1775 
G01 X-20.7952 Y15.1173 
G01 X-20.9689 Y15.0288 
G01 X-21.1265 Y14.9143 
G01 X-21.2643 Y14.7765 
G01 X-21.3788 Y14.6189 
G01 X-21.4673 Y14.4452 
G01 X-21.5275 Y14.2599 
G01 X-21.5580 Y14.0674 
G01 X-21.5580 Y13.8726 
G01 X-21.5275 Y13.6801 
G01 X-21.4673 Y13.4948 
G01 X-21.3788 Y13.3211 
G01 X-21.2643 Y13.1635 
G01 X-21.1265 Y13.0257 
G01 X-20.9689 Y12.9112 
G01 X-20.7952 Y12.8227 
G01 X-20.6099 Y12.7625 
G01 X-20.4174 Y12.7320 
G01 X-20.2226 Y12.7320 
G01 X-20.0301 Y12.7625 
G01 X-19.8448 Y12.8227 
G01 X-19.6711 Y12.9112 
G01 X-19.5135 Y13.0257 
G01 X-19.3881 Y13.1511 
G01 X-14.7889 Y13.1511 
G01 X-14.7889 Y12.6193 
G01 X-14.7574 Y12.4611 
G01 X-14.6957 Y12.3121 
G01 X-14.6061 Y12.1780 
G01 X-14.4920 Y12.0639 
G01 X-14.3579 Y11.9743 
G01 X-14.2089 Y11.9126 
G01 X-14.0507 Y11.8811 
G01 X-12.7417 Y11.8811 
G01 X-12.7575 Y11.7815 
G01 X-12.7575 Y11.5985 
G01 X-12.7289 Y11.4178 
G01 X-12.6723 Y11.2438 
G01 X-12.5893 Y11.0807 
G01 X-12.4817 Y10.9327 
G01 X-12.3523 Y10.8033 
G01 X-12.2043 Y10.6957 
G01 X-12.1538 Y10.6700 
G01 X-12.2043 Y10.6443 
G01 X-12.3523 Y10.5367 
G01 X-12.4201 Y10.4689 
G01 X-14.0507 Y10.4689 
G01 X-14.2089 Y10.4374 
G01 X-14.3579 Y10.3757 
G01 X-14.4920 Y10.2861 
G01 X-14.6061 Y10.1720 
G01 X-14.6957 Y10.0379 
G01 X-14.7574 Y9.8889 
G01 X-14.7889 Y9.7307 
G01 X-14.7889 Y9.7089 
G01 X-19.3881 Y9.7089 
G01 X-19.5135 Y9.8343 
G01 X-19.6711 Y9.9488 
G01 X-19.8448 Y10.0373 
G01 X-20.0301 Y10.0975 
G01 X-20.2226 Y10.1280 
G01 X-20.4174 Y10.1280 
G01 X-20.6099 Y10.0975 
G01 X-20.7952 Y10.0373 
G01 X-20.9689 Y9.9488 
G01 X-21.1265 Y9.8343 
G01 X-21.2643 Y9.6965 
G01 X-21.3788 Y9.5389 
G01 X-21.4673 Y9.3652 
G01 X-21.5275 Y9.1799 
G01 X-21.5580 Y8.9874 
G01 X-21.5580 Y8.7926 
G01 X-21.5275 Y8.6001 
G01 X-21.4673 Y8.4148 
G01 X-21.3788 Y8.2411 
G01 X-21.2643 Y8.0835 
G01 X-21.1265 Y7.9457 
G01 X-20.9689 Y7.8312 
G01 X-20.7952 Y7.7427 
G01 X-20.6099 Y7.6825 
G01 X-20.4174 Y7.6520 
G01 X-20.2226 Y7.6520 
G01 X-20.0301 Y7.6825 
G01 X-19.8448 Y7.7427 
G01 X-19.6711 Y7.8312 
G01 X-19.5135 Y7.9457 
G01 X-19.3881 Y8.0711 
G01 X-13.8893 Y8.0711 
G01 X-13.7311 Y8.1026 
G01 X-13.5821 Y8.1643 
G01 X-13.4480 Y8.2539 
G01 X-13.3339 Y8.3680 
G01 X-13.2443 Y8.5021 
G01 X-13.1826 Y8.6511 
G01 X-13.1511 Y8.8093 
G01 X-13.1511 Y8.8311 
G01 X-12.4201 Y8.8311 
G01 X-12.3523 Y8.7633 
G01 X-12.2043 Y8.6557 
G01 X-12.1538 Y8.6300 
G01 X-12.2043 Y8.6043 
G01 X-12.3523 Y8.4967 
G01 X-12.4817 Y8.3673 
G01 X-12.5893 Y8.2193 
G01 X-12.6723 Y8.0562 
G01 X-12.7289 Y7.8822 
G01 X-12.7575 Y7.7015 
G01 X-12.7575 Y7.5185 
G01 X-12.7289 Y7.3378 
G01 X-12.6723 Y7.1638 
G01 X-12.5893 Y7.0007 
G01 X-12.4817 Y6.8527 
G01 X-12.3523 Y6.7233 
G01 X-12.2489 Y6.6482 
G01 X-12.2489 Y5.8989 
G01 X-14.0507 Y5.8989 
G01 X-14.2089 Y5.8674 
G01 X-14.3579 Y5.8057 
G01 X-14.4920 Y5.7161 
G01 X-14.6061 Y5.6020 
G01 X-14.6957 Y5.4679 
G01 X-14.7574 Y5.3189 
G01 X-14.7889 Y5.1607 
G01 X-14.7889 Y4.6289 
G01 X-19.3881 Y4.6289 
G01 X-19.5135 Y4.7543 
G01 X-19.6711 Y4.8688 
G01 X-19.8448 Y4.9573 
G01 X-20.0301 Y5.0175 
G01 X-20.2226 Y5.0480 
G01 X-20.4174 Y5.0480 
G01 X-20.6099 Y5.0175 
G01 X-20.7952 Y4.9573 
G01 X-20.9689 Y4.8688 
G01 X-21.1265 Y4.7543 
G01 X-21.2643 Y4.6165 
G01 X-21.3788 Y4.4589 
G01 X-21.4673 Y4.2852 
G01 X-21.5275 Y4.0999 
G01 X-21.5580 Y3.9074 
G01 X-21.5580 Y3.7126 
G01 X-21.5275 Y3.5201 
G01 X-21.4673 Y3.3348 
G01 X-21.3788 Y3.1611 
G01 X-21.2643 Y3.0035 
G01 X-21.1265 Y2.8657 
G01 X-20.9689 Y2.7512 
G01 X-20.7952 Y2.6627 
G01 X-20.6099 Y2.6025 
G01 X-20.4174 Y2.5720 
G01 X-20.2226 Y2.5720 
G01 X-20.0301 Y2.6025 
G01 X-19.8448 Y2.6627 
G01 X-19.6711 Y2.7512 
G01 X-19.5135 Y2.8657 
G01 X-19.3881 Y2.9911 
G01 X-13.8893 Y2.9911 
G01 X-13.7311 Y3.0226 
G01 X-13.5821 Y3.0843 
G01 X-13.4480 Y3.1739 
G01 X-13.3339 Y3.2880 
G01 X-13.2443 Y3.4221 
G01 X-13.1826 Y3.5711 
G01 X-13.1511 Y3.7293 
G01 X-13.1511 Y4.2611 
G01 X-11.3493 Y4.2611 
G01 X-11.1911 Y4.2926 
G01 X-11.0421 Y4.3543 
G01 X-10.9080 Y4.4439 
G01 X-10.7939 Y4.5580 
G00 Z5.0000 
G00 X-3.1351 Y0.7161 
G01 Z-0.0800 F300.00 
G01 X-3.0400 Y0.8584 F400.00 
G01 X-2.9745 Y1.0166 
G01 X-2.9411 Y1.1844 
G01 X-2.9411 Y8.7156 
G01 X-2.9745 Y8.8834 
G01 X-3.0400 Y9.0416 
G01 X-3.1351 Y9.1839 
G01 X-3.2561 Y9.3049 
G01 X-3.3984 Y9.4000 
G01 X-3.5566 Y9.4655 
G01 X-3.7244 Y9.4989 
G01 X-8.2092 Y9.4989 
G01 X-8.2651 Y9.5548 
G01 X-8.3961 Y9.6500 
G01 X-8.2651 Y9.7452 
G01 X-8.1302 Y9.8801 
G01 X-8.0967 Y9.9261 
G01 X-3.7244 Y9.9261 
G01 X-3.5566 Y9.9595 
G01 X-3.3984 Y10.0250 
G01 X-3.2561 Y10.1201 
G01 X-3.1351 Y10.2411 
G01 X-3.0400 Y10.3834 
G01 X-2.9745 Y10.5416 
G01 X-2.9411 Y10.7094 
G01 X-2.9411 Y19.1356 
G01 X-2.9745 Y19.3034 
G01 X-3.0400 Y19.4616 
G01 X-3.1351 Y19.6039 
G01 X-3.2561 Y19.7249 
G01 X-3.3984 Y19.8200 
G01 X-3.5566 Y19.8855 
G01 X-3.7244 Y19.9189 
G01 X-22.9456 Y19.9189 
G01 X-23.1134 Y19.8855 
G01 X-23.2716 Y19.8200 
G01 X-23.4139 Y19.7249 
G01 X-23.5349 Y19.6039 
G01 X-23.6300 Y19.4616 
G01 X-23.6955 Y19.3034 
G01 X-23.7289 Y19.1356 
G01 X-23.7289 Y11.3444 
G01 X-23.6955 Y11.1766 
G01 X-23.6300 Y11.0184 
G01 X-23.5349 Y10.8761 
G01 X-23.4139 Y10.7551 
G01 X-23.2716 Y10.6600 
G01 X-23.1134 Y10.5945 
G01 X-22.9456 Y10.5611 
G01 X-21.2726 Y10.5611 
G01 X-21.1591 Y10.4476 
G01 X-20.9951 Y10.3284 
G01 X-20.8144 Y10.2364 
G01 X-20.6216 Y10.1737 
G01 X-20.5350 Y10.1600 
G01 X-20.6216 Y10.1463 
G01 X-20.8144 Y10.0836 
G01 X-20.9951 Y9.9916 
G01 X-21.1591 Y9.8724 
G01 X-21.3024 Y9.7291 
G01 X-21.4216 Y9.5651 
G01 X-21.5136 Y9.3844 
G01 X-21.5763 Y9.1916 
G01 X-21.6080 Y8.9914 
G01 X-21.6080 Y8.7886 
G01 X-21.5763 Y8.5884 
G01 X-21.5136 Y8.3956 
G01 X-21.4216 Y8.2149 
G01 X-21.3024 Y8.0509 
G01 X-21.1591 Y7.9076 
G01 X-20.9951 Y7.7884 
G01 X-20.8144 Y7.6964 
G01 X-20.6216 Y7.6337 
G01 X-20.5350 Y7.6200 
G01 X-20.6216 Y7.6063 
G01 X-20.8144 Y7.5436 
G01 X-20.9951 Y7.4516 
G01 X-21.1591 Y7.3324 
G01 X-21.2726 Y7.2189 
G01 X-22.9456 Y7.2189 
G01 X-23.1134 Y7.1855 
G01 X-23.2716 Y7.1200 
G01 X-23.4139 Y7.0249 
G01 X-23.5349 Y6.9039 
G01 X-23.6300 Y6.7616 
G01 X-23.6955 Y6.6034 
G01 X-23.7289 Y6.4356 
G01 X-23.7289 Y1.1844 
G01 X-23.6955 Y1.0166 
G01 X-23.6300 Y0.8584 
G01 X-23.5349 Y0.7161 
G01 X-23.4139 Y0.5951 
G01 X-23.2716 Y0.5000 
G01 X-23.1134 Y0.4345 
G01 X-22.9456 Y0.4011 
G01 X-3.7244 Y0.4011 
G01 X-3.5566 Y0.4345 
G01 X-3.3984 Y0.5000 
G01 X-3.2561 Y0.5951 
G01 X-3.1351 Y0.7161 
G00 Z5.0000 
G00 X-4.6789 Y2.1389 
G01 Z-0.0800 F300.00 
G01 X-21.9911 Y2.1389 F400.00 
G01 X-21.9911 Y5.4811 
G01 X-21.2726 Y5.4811 
G01 X-21.1591 Y5.3676 
G01 X-20.9951 Y5.2484 
G01 X-20.8144 Y5.1564 
G01 X-20.6216 Y5.0937 
G01 X-20.5350 Y5.0800 
G01 X-20.6216 Y5.0663 
G01 X-20.8144 Y5.0036 
G01 X-20.9951 Y4.9116 
G01 X-21.1591 Y4.7924 
G01 X-21.3024 Y4.6491 
G01 X-21.4216 Y4.4851 
G01 X-21.5136 Y4.3044 
G01 X-21.5763 Y4.1116 
G01 X-21.6080 Y3.9114 
G01 X-21.6080 Y3.7086 
G01 X-21.5763 Y3.5084 
G01 X-21.5136 Y3.3156 
G01 X-21.4216 Y3.1349 
G01 X-21.3024 Y2.9709 
G01 X-21.1591 Y2.8276 
G01 X-20.9951 Y2.7084 
G01 X-20.8144 Y2.6164 
G01 X-20.6216 Y2.5537 
G01 X-20.4214 Y2.5220 
G01 X-20.2186 Y2.5220 
G01 X-20.0184 Y2.5537 
G01 X-19.8256 Y2.6164 
G01 X-19.6449 Y2.7084 
G01 X-19.4809 Y2.8276 
G01 X-19.3674 Y2.9411 
G01 X-13.8844 Y2.9411 
G01 X-13.7165 Y2.9745 
G01 X-13.5584 Y3.0400 
G01 X-13.4161 Y3.1351 
G01 X-13.2951 Y3.2561 
G01 X-13.2000 Y3.3984 
G01 X-13.1345 Y3.5566 
G01 X-13.1011 Y3.7244 
G01 X-13.1011 Y4.2111 
G01 X-11.3444 Y4.2111 
G01 X-11.1766 Y4.2445 
G01 X-11.0184 Y4.3100 
G01 X-10.8761 Y4.4051 
G01 X-10.7551 Y4.5261 
G01 X-10.6600 Y4.6684 
G01 X-10.5945 Y4.8266 
G01 X-10.5611 Y4.9944 
G01 X-10.5611 Y6.9702 
G01 X-10.4713 Y7.1446 
G01 X-10.4124 Y7.3261 
G01 X-10.3825 Y7.5146 
G01 X-10.3825 Y7.7054 
G01 X-10.4124 Y7.8939 
G01 X-10.4713 Y8.0754 
G01 X-10.5580 Y8.2455 
G01 X-10.6702 Y8.3999 
G01 X-10.8051 Y8.5348 
G01 X-10.9361 Y8.6300 
G01 X-10.8051 Y8.7252 
G01 X-10.6702 Y8.8601 
G01 X-10.5580 Y9.0145 
G01 X-10.4713 Y9.1846 
G01 X-10.4124 Y9.3661 
G01 X-10.3825 Y9.5546 
G01 X-10.3825 Y9.7454 
G01 X-10.4124 Y9.9339 
G01 X-10.4713 Y10.1154 
G01 X-10.5580 Y10.2855 
G01 X-10.6702 Y10.4399 
G01 X-10.8051 Y10.5748 
G01 X-10.9361 Y10.6700 
G01 X-10.8051 Y10.7652 
G01 X-10.6702 Y10.9001 
G01 X-10.5580 Y11.0545 
G01 X-10.4713 Y11.2246 
G01 X-10.4124 Y11.4061 
G01 X-10.3825 Y11.5946 
G01 X-10.3825 Y11.7854 
G01 X-10.4124 Y11.9739 
G01 X-10.4713 Y12.1554 
G01 X-10.5580 Y12.3255 
G01 X-10.5611 Y12.7856 
G01 X-10.5945 Y12.9534 
G01 X-10.6600 Y13.1116 
G01 X-10.7551 Y13.2539 
G01 X-10.8761 Y13.3749 
G01 X-11.0184 Y13.4700 
G01 X-11.1766 Y13.5355 
G01 X-11.3444 Y13.5689 
G01 X-13.1011 Y13.5689 
G01 X-13.1011 Y14.0556 
G01 X-13.1345 Y14.2234 
G01 X-13.2000 Y14.3816 
G01 X-13.2951 Y14.5239 
G01 X-13.4161 Y14.6449 
G01 X-13.5584 Y14.7400 
G01 X-13.7165 Y14.8055 
G01 X-13.8844 Y14.8389 
G01 X-19.3674 Y14.8389 
G01 X-19.4809 Y14.9524 
G01 X-19.6449 Y15.0716 
G01 X-19.8256 Y15.1636 
G01 X-20.0052 Y15.2220 
G01 X-19.4336 Y15.2220 
G01 X-19.3160 Y15.2535 
G01 X-19.2105 Y15.3144 
G01 X-19.1244 Y15.4005 
G01 X-19.0635 Y15.5060 
G01 X-19.0320 Y15.6236 
G01 X-19.0320 Y15.6411 
G01 X-11.0289 Y15.6411 
G01 X-11.0289 Y13.8844 
G01 X-10.9955 Y13.7165 
G01 X-10.9300 Y13.5584 
G01 X-10.8349 Y13.4161 
G01 X-10.7139 Y13.2951 
G01 X-10.5716 Y13.2000 
G01 X-10.4134 Y13.1345 
G01 X-10.2456 Y13.1011 
G01 X-10.2028 Y13.1011 
G01 X-10.2376 Y12.9939 
G01 X-10.2675 Y12.8054 
G01 X-10.2675 Y12.6146 
G01 X-10.2376 Y12.4261 
G01 X-10.1787 Y12.2446 
G01 X-10.0920 Y12.0745 
G01 X-9.9798 Y11.9201 
G01 X-9.8449 Y11.7852 
G01 X-9.7139 Y11.6900 
G01 X-9.8449 Y11.5948 
G01 X-9.9798 Y11.4599 
G01 X-10.0920 Y11.3055 
G01 X-10.1787 Y11.1354 
G01 X-10.2376 Y10.9539 
G01 X-10.2675 Y10.7654 
G01 X-10.2675 Y10.5746 
G01 X-10.2376 Y10.3861 
G01 X-10.1787 Y10.2046 
G01 X-10.0920 Y10.0345 
G01 X-9.9798 Y9.8801 
G01 X-9.8449 Y9.7452 
G01 X-9.7139 Y9.6500 
G01 X-9.8449 Y9.5548 
G01 X-9.9798 Y9.4199 
G01 X-10.0920 Y9.2655 
G01 X-10.1787 Y9.0954 
G01 X-10.2376 Y8.9139 
G01 X-10.2675 Y8.7254 
G01 X-10.2675 Y8.5346 
G01 X-10.2376 Y8.3461 
G01 X-10.1787 Y8.1646 
G01 X-10.0920 Y7.9945 
G01 X-9.9798 Y7.8401 
G01 X-9.8449 Y7.7052 
G01 X-9.6905 Y7.5930 
G01 X-9.5204 Y7.5063 
G01 X-9.3389 Y7.4474 
G01 X-9.1504 Y7.4175 
G01 X-8.9596 Y7.4175 
G01 X-8.7711 Y7.4474 
G01 X-8.5896 Y7.5063 
G01 X-8.4195 Y7.5930 
G01 X-8.2651 Y7.7052 
G01 X-8.2092 Y7.7611 
G01 X-4.6789 Y7.7611 
G01 X-4.6789 Y2.1389 
G00 Z5.0000 
G00 X-4.6789 Y11.6639 
G01 Z-0.0800 F300.00 
G01 X-8.3602 Y11.6639 F400.00 
G01 X-8.3961 Y11.6900 
G01 X-8.2651 Y11.7852 
G01 X-8.1302 Y11.9201 
G01 X-8.0180 Y12.0745 
G01 X-7.9313 Y12.2446 
G01 X-7.8724 Y12.4261 
G01 X-7.8425 Y12.6146 
G01 X-7.8425 Y12.8054 
G01 X-7.8724 Y12.9939 
G01 X-7.9313 Y13.1754 
G01 X-8.0180 Y13.3455 
G01 X-8.1302 Y13.4999 
G01 X-8.1861 Y13.5558 
G01 X-8.1861 Y14.0556 
G01 X-8.2195 Y14.2234 
G01 X-8.2850 Y14.3816 
G01 X-8.3801 Y14.5239 
G01 X-8.5011 Y14.6449 
G01 X-8.6434 Y14.7400 
G01 X-8.8016 Y14.8055 
G01 X-8.9694 Y14.8389 
G01 X-9.2911 Y14.8389 
G01 X-9.2911 Y16.5956 
G01 X-9.3245 Y16.7634 
G01 X-9.3900 Y16.9216 
G01 X-9.4851 Y17.0639 
G01 X-9.6061 Y17.1849 
G01 X-9.7484 Y17.2800 
G01 X-9.9066 Y17.3455 
G01 X-10.0744 Y17.3789 
G01 X-19.0320 Y17.3789 
G01 X-19.0320 Y17.3964 
G01 X-19.0635 Y17.5140 
G01 X-19.1244 Y17.6195 
G01 X-19.2105 Y17.7056 
G01 X-19.3160 Y17.7665 
G01 X-19.4336 Y17.7980 
G01 X-21.2064 Y17.7980 
G01 X-21.3240 Y17.7665 
G01 X-21.4295 Y17.7056 
G01 X-21.5156 Y17.6195 
G01 X-21.5765 Y17.5140 
G01 X-21.6080 Y17.3964 
G01 X-21.6080 Y15.6236 
G01 X-21.5765 Y15.5060 
G01 X-21.5156 Y15.4005 
G01 X-21.4295 Y15.3144 
G01 X-21.3240 Y15.2535 
G01 X-21.2064 Y15.2220 
G01 X-20.6348 Y15.2220 
G01 X-20.8144 Y15.1636 
G01 X-20.9951 Y15.0716 
G01 X-21.1591 Y14.9524 
G01 X-21.3024 Y14.8091 
G01 X-21.4216 Y14.6451 
G01 X-21.5136 Y14.4644 
G01 X-21.5763 Y14.2716 
G01 X-21.6080 Y14.0714 
G01 X-21.6080 Y13.8686 
G01 X-21.5763 Y13.6684 
G01 X-21.5136 Y13.4756 
G01 X-21.4216 Y13.2949 
G01 X-21.3024 Y13.1309 
G01 X-21.1591 Y12.9876 
G01 X-20.9951 Y12.8684 
G01 X-20.8144 Y12.7764 
G01 X-20.6216 Y12.7137 
G01 X-20.5350 Y12.7000 
G01 X-20.6216 Y12.6863 
G01 X-20.8144 Y12.6236 
G01 X-20.9951 Y12.5316 
G01 X-21.1591 Y12.4124 
G01 X-21.2726 Y12.2989 
G01 X-21.9911 Y12.2989 
G01 X-21.9911 Y18.1811 
G01 X-4.6789 Y18.1811 
G01 X-4.6789 Y11.6639 
G00 Z5.0000 
G00 X-12.8075 Y11.5946 
G01 Z-0.0800 F300.00 
G01 X-12.7776 Y11.4061 F400.00 
G01 X-12.7187 Y11.2246 
G01 X-12.6320 Y11.0545 
G01 X-12.5198 Y10.9001 
G01 X-12.3849 Y10.7652 
G01 X-12.2539 Y10.6700 
G01 X-12.3849 Y10.5748 
G01 X-12.4408 Y10.5189 
G01 X-14.0556 Y10.5189 
G01 X-14.2234 Y10.4855 
G01 X-14.3816 Y10.4200 
G01 X-14.5239 Y10.3249 
G01 X-14.6449 Y10.2039 
G01 X-14.7400 Y10.0616 
G01 X-14.8055 Y9.9034 
G01 X-14.8343 Y9.7589 
G01 X-19.3674 Y9.7589 
G01 X-19.4809 Y9.8724 
G01 X-19.6449 Y9.9916 
G01 X-19.8256 Y10.0836 
G01 X-20.0184 Y10.1463 
G01 X-20.1050 Y10.1600 
G01 X-20.0184 Y10.1737 
G01 X-19.8256 Y10.2364 
G01 X-19.6449 Y10.3284 
G01 X-19.4809 Y10.4476 
G01 X-19.3376 Y10.5909 
G01 X-19.2184 Y10.7549 
G01 X-19.1264 Y10.9356 
G01 X-19.0637 Y11.1284 
G01 X-19.0320 Y11.3286 
G01 X-19.0320 Y11.5314 
G01 X-19.0637 Y11.7316 
G01 X-19.1264 Y11.9244 
G01 X-19.2184 Y12.1051 
G01 X-19.3376 Y12.2691 
G01 X-19.4809 Y12.4124 
G01 X-19.6449 Y12.5316 
G01 X-19.8256 Y12.6236 
G01 X-20.0184 Y12.6863 
G01 X-20.1050 Y12.7000 
G01 X-20.0184 Y12.7137 
G01 X-19.8256 Y12.7764 
G01 X-19.6449 Y12.8684 
G01 X-19.4809 Y12.9876 
G01 X-19.3674 Y13.1011 
G01 X-14.8389 Y13.1011 
G01 X-14.8389 Y12.6144 
G01 X-14.8055 Y12.4466 
G01 X-14.7400 Y12.2884 
G01 X-14.6449 Y12.1461 
G01 X-14.5239 Y12.0251 
G01 X-14.3816 Y11.9300 
G01 X-14.2234 Y11.8645 
G01 X-14.0556 Y11.8311 
G01 X-12.8003 Y11.8311 
G01 X-12.8075 Y11.7854 
G01 X-12.8075 Y11.5946 
G00 Z5.0000 
G00 X-13.1057 Y8.7811 
G01 Z-0.0800 F300.00 
G01 X-12.4408 Y8.7811 F400.00 
G01 X-12.3849 Y8.7252 
G01 X-12.2539 Y8.6300 
G01 X-12.3849 Y8.5348 
G01 X-12.5198 Y8.3999 
G01 X-12.6320 Y8.2455 
G01 X-12.7187 Y8.0754 
G01 X-12.7776 Y7.8939 
G01 X-12.8075 Y7.7054 
G01 X-12.8075 Y7.5146 
G01 X-12.7776 Y7.3261 
G01 X-12.7187 Y7.1446 
G01 X-12.6320 Y6.9745 
G01 X-12.5198 Y6.8201 
G01 X-12.3849 Y6.6852 
G01 X-12.2989 Y6.6227 
G01 X-12.2989 Y5.9489 
G01 X-14.0556 Y5.9489 
G01 X-14.2234 Y5.9155 
G01 X-14.3816 Y5.8500 
G01 X-14.5239 Y5.7549 
G01 X-14.6449 Y5.6339 
G01 X-14.7400 Y5.4916 
G01 X-14.8055 Y5.3334 
G01 X-14.8389 Y5.1656 
G01 X-14.8389 Y4.6789 
G01 X-19.3674 Y4.6789 
G01 X-19.4809 Y4.7924 
G01 X-19.6449 Y4.9116 
G01 X-19.8256 Y5.0036 
G01 X-20.0184 Y5.0663 
G01 X-20.1050 Y5.0800 
G01 X-20.0184 Y5.0937 
G01 X-19.8256 Y5.1564 
G01 X-19.6449 Y5.2484 
G01 X-19.4809 Y5.3676 
G01 X-19.3376 Y5.5109 
G01 X-19.2184 Y5.6749 
G01 X-19.1264 Y5.8556 
G01 X-19.0637 Y6.0484 
G01 X-19.0320 Y6.2486 
G01 X-19.0320 Y6.4514 
G01 X-19.0637 Y6.6516 
G01 X-19.1264 Y6.8444 
G01 X-19.2184 Y7.0251 
G01 X-19.3376 Y7.1891 
G01 X-19.4809 Y7.3324 
G01 X-19.6449 Y7.4516 
G01 X-19.8256 Y7.5436 
G01 X-20.0184 Y7.6063 
G01 X-20.1050 Y7.6200 
G01 X-20.0184 Y7.6337 
G01 X-19.8256 Y7.6964 
G01 X-19.6449 Y7.7884 
G01 X-19.4809 Y7.9076 
G01 X-19.3674 Y8.0211 
G01 X-13.8844 Y8.0211 
G01 X-13.7165 Y8.0545 
G01 X-13.5584 Y8.1200 
G01 X-13.4161 Y8.2151 
G01 X-13.2951 Y8.3361 
G01 X-13.2000 Y8.4784 
G01 X-13.1345 Y8.6365 
G01 X-13.1057 Y8.7811 
G00 Z5.0000 
G00 X-3.0962 Y0.6842 
G01 Z-0.0800 F300.00 
G01 X-2.9957 Y0.8347 F400.00 
G01 X-2.9264 Y1.0020 
G01 X-2.8911 Y1.1795 
G01 X-2.8911 Y8.7205 
G01 X-2.9264 Y8.8980 
G01 X-2.9957 Y9.0653 
G01 X-3.0962 Y9.2158 
G01 X-3.2242 Y9.3438 
G01 X-3.3747 Y9.4443 
G01 X-3.5420 Y9.5136 
G01 X-3.7195 Y9.5489 
G01 X-8.1885 Y9.5489 
G01 X-8.2325 Y9.5930 
G01 X-8.3110 Y9.6500 
G01 X-8.2325 Y9.7070 
G01 X-8.0920 Y9.8475 
G01 X-8.0713 Y9.8761 
G01 X-3.7195 Y9.8761 
G01 X-3.5420 Y9.9114 
G01 X-3.3747 Y9.9807 
G01 X-3.2242 Y10.0812 
G01 X-3.0962 Y10.2092 
G01 X-2.9957 Y10.3597 
G01 X-2.9264 Y10.5270 
G01 X-2.8911 Y10.7045 
G01 X-2.8911 Y19.1405 
G01 X-2.9264 Y19.3180 
G01 X-2.9957 Y19.4853 
G01 X-3.0962 Y19.6358 
G01 X-3.2242 Y19.7638 
G01 X-3.3747 Y19.8643 
G01 X-3.5420 Y19.9336 
G01 X-3.7195 Y19.9689 
G01 X-22.9505 Y19.9689 
G01 X-23.1280 Y19.9336 
G01 X-23.2953 Y19.8643 
G01 X-23.4458 Y19.7638 
G01 X-23.5738 Y19.6358 
G01 X-23.6743 Y19.4853 
G01 X-23.7436 Y19.3180 
G01 X-23.7789 Y19.1405 
G01 X-23.7789 Y11.3395 
G01 X-23.7436 Y11.1620 
G01 X-23.6743 Y10.9947 
G01 X-23.5738 Y10.8442 
G01 X-23.4458 Y10.7162 
G01 X-23.2953 Y10.6157 
G01 X-23.1280 Y10.5464 
G01 X-22.9505 Y10.5111 
G01 X-21.2933 Y10.5111 
G01 X-21.1916 Y10.4094 
G01 X-21.0213 Y10.2856 
G01 X-20.8336 Y10.1900 
G01 X-20.7412 Y10.1600 
G01 X-20.8336 Y10.1300 
G01 X-21.0213 Y10.0344 
G01 X-21.1916 Y9.9106 
G01 X-21.3406 Y9.7616 
G01 X-21.4644 Y9.5913 
G01 X-21.5600 Y9.4036 
G01 X-21.6251 Y9.2033 
G01 X-21.6580 Y8.9953 
G01 X-21.6580 Y8.7847 
G01 X-21.6251 Y8.5767 
G01 X-21.5600 Y8.3764 
G01 X-21.4644 Y8.1887 
G01 X-21.3406 Y8.0183 
G01 X-21.1916 Y7.8694 
G01 X-21.0213 Y7.7456 
G01 X-20.8336 Y7.6500 
G01 X-20.7412 Y7.6200 
G01 X-20.8336 Y7.5900 
G01 X-21.0213 Y7.4944 
G01 X-21.1916 Y7.3706 
G01 X-21.2933 Y7.2689 
G01 X-22.9505 Y7.2689 
G01 X-23.1280 Y7.2336 
G01 X-23.2953 Y7.1643 
G01 X-23.4458 Y7.0638 
G01 X-23.5738 Y6.9358 
G01 X-23.6743 Y6.7853 
G01 X-23.7436 Y6.6180 
G01 X-23.7789 Y6.4405 
G01 X-23.7789 Y1.1795 
G01 X-23.7436 Y1.0020 
G01 X-23.6743 Y0.8347 
G01 X-23.5738 Y0.6842 
G01 X-23.4458 Y0.5562 
G01 X-23.2953 Y0.4557 
G01 X-23.1280 Y0.3864 
G01 X-22.9505 Y0.3511 
G01 X-3.7195 Y0.3511 
G01 X-3.5420 Y0.3864 
G01 X-3.3747 Y0.4557 
G01 X-3.2242 Y0.5562 
G01 X-3.0962 Y0.6842 
G00 Z5.0000 
G00 X-4.7289 Y2.1889 
G01 Z-0.0800 F300.00 
G01 X-21.9411 Y2.1889 F400.00 
G01 X-21.9411 Y5.4311 
G01 X-21.2933 Y5.4311 
G01 X-21.1916 Y5.3294 
G01 X-21.0213 Y5.2056 
G01 X-20.8336 Y5.1100 
G01 X-20.7412 Y5.0800 
G01 X-20.8336 Y5.0500 
G01 X-21.0213 Y4.9544 
G01 X-21.1916 Y4.8306 
G01 X-21.3406 Y4.6816 
G01 X-21.4644 Y4.5113 
G01 X-21.5600 Y4.3236 
G01 X-21.6251 Y4.1233 
G01 X-21.6580 Y3.9153 
G01 X-21.6580 Y3.7047 
G01 X-21.6251 Y3.4967 
G01 X-21.5600 Y3.2964 
G01 X-21.4644 Y3.1087 
G01 X-21.3406 Y2.9384 
G01 X-21.1916 Y2.7894 
G01 X-21.0213 Y2.6656 
G01 X-20.8336 Y2.5700 
G01 X-20.6333 Y2.5049 
G01 X-20.4253 Y2.4720 
G01 X-20.2147 Y2.4720 
G01 X-20.0067 Y2.5049 
G01 X-19.8064 Y2.5700 
G01 X-19.6187 Y2.6656 
G01 X-19.4484 Y2.7894 
G01 X-19.3467 Y2.8911 
G01 X-13.8795 Y2.8911 
G01 X-13.7020 Y2.9264 
G01 X-13.5347 Y2.9957 
G01 X-13.3842 Y3.0962 
G01 X-13.2562 Y3.2242 
G01 X-13.1557 Y3.3747 
G01 X-13.0864 Y3.5420 
G01 X-13.0511 Y3.7195 
G01 X-13.0511 Y4.1611 
G01 X-11.3395 Y4.1611 
G01 X-11.1620 Y4.1964 
G01 X-10.9947 Y4.2657 
G01 X-10.8442 Y4.3662 
G01 X-10.7162 Y4.4942 
G01 X-10.6157 Y4.6447 
G01 X-10.5464 Y4.8120 
G01 X-10.5111 Y4.9895 
G01 X-10.5111 Y6.9564 
G01 X-10.4250 Y7.1254 
G01 X-10.3636 Y7.3144 
G01 X-10.3325 Y7.5106 
G01 X-10.3325 Y7.7094 
G01 X-10.3636 Y7.9056 
G01 X-10.4250 Y8.0946 
G01 X-10.5152 Y8.2717 
G01 X-10.6320 Y8.4325 
G01 X-10.7725 Y8.5730 
G01 X-10.8510 Y8.6300 
G01 X-10.7725 Y8.6870 
G01 X-10.6320 Y8.8275 
G01 X-10.5152 Y8.9883 
G01 X-10.4250 Y9.1654 
G01 X-10.3636 Y9.3544 
G01 X-10.3325 Y9.5506 
G01 X-10.3325 Y9.7494 
G01 X-10.3636 Y9.9456 
G01 X-10.4250 Y10.1346 
G01 X-10.5152 Y10.3117 
G01 X-10.6320 Y10.4725 
G01 X-10.7725 Y10.6130 
G01 X-10.8510 Y10.6700 
G01 X-10.7725 Y10.7270 
G01 X-10.6320 Y10.8675 
G01 X-10.5152 Y11.0283 
G01 X-10.4250 Y11.2054 
G01 X-10.3636 Y11.3944 
G01 X-10.3325 Y11.5906 
G01 X-10.3325 Y11.7894 
G01 X-10.3636 Y11.9856 
G01 X-10.4250 Y12.1746 
G01 X-10.5111 Y12.3436 
G01 X-10.5111 Y12.7905 
G01 X-10.5464 Y12.9680 
G01 X-10.6157 Y13.1353 
G01 X-10.6568 Y13.1968 
G01 X-10.5953 Y13.1557 
G01 X-10.4280 Y13.0864 
G01 X-10.2704 Y13.0551 
G01 X-10.2864 Y13.0056 
G01 X-10.3175 Y12.8094 
G01 X-10.3175 Y12.6106 
G01 X-10.2864 Y12.4144 
G01 X-10.2250 Y12.2254 
G01 X-10.1348 Y12.0483 
G01 X-10.0180 Y11.8875 
G01 X-9.8775 Y11.7470 
G01 X-9.7990 Y11.6900 
G01 X-9.8775 Y11.6330 
G01 X-10.0180 Y11.4925 
G01 X-10.1348 Y11.3317 
G01 X-10.2250 Y11.1546 
G01 X-10.2864 Y10.9656 
G01 X-10.3175 Y10.7694 
G01 X-10.3175 Y10.5706 
G01 X-10.2864 Y10.3744 
G01 X-10.2250 Y10.1854 
G01 X-10.1348 Y10.0083 
G01 X-10.0180 Y9.8475 
G01 X-9.8775 Y9.7070 
G01 X-9.7990 Y9.6500 
G01 X-9.8775 Y9.5930 
G01 X-10.0180 Y9.4525 
G01 X-10.1348 Y9.2917 
G01 X-10.2250 Y9.1146 
G01 X-10.2864 Y8.9256 
G01 X-10.3175 Y8.7294 
G01 X-10.3175 Y8.5306 
G01 X-10.2864 Y8.3344 
G01 X-10.2250 Y8.1454 
G01 X-10.1348 Y7.9683 
G01 X-10.0180 Y7.8075 
G01 X-9.8775 Y7.6670 
G01 X-9.7167 Y7.5502 
G01 X-9.5396 Y7.4600 
G01 X-9.3506 Y7.3986 
G01 X-9.1544 Y7.3675 
G01 X-8.9556 Y7.3675 
G01 X-8.7594 Y7.3986 
G01 X-8.5704 Y7.4600 
G01 X-8.3933 Y7.5502 
G01 X-8.2325 Y7.6670 
G01 X-8.1885 Y7.7111 
G01 X-4.7289 Y7.7111 
G01 X-4.7289 Y2.1889 
G00 Z5.0000 
G00 X-4.7289 Y11.7139 
G01 Z-0.0800 F300.00 
G01 X-8.2781 Y11.7139 F400.00 
G01 X-8.2325 Y11.7470 
G01 X-8.0920 Y11.8875 
G01 X-7.9752 Y12.0483 
G01 X-7.8850 Y12.2254 
G01 X-7.8236 Y12.4144 
G01 X-7.7925 Y12.6106 
G01 X-7.7925 Y12.8094 
G01 X-7.8236 Y13.0056 
G01 X-7.8850 Y13.1946 
G01 X-7.9752 Y13.3717 
G01 X-8.0920 Y13.5325 
G01 X-8.1361 Y13.5765 
G01 X-8.1361 Y14.0605 
G01 X-8.1714 Y14.2380 
G01 X-8.2407 Y14.4053 
G01 X-8.3412 Y14.5558 
G01 X-8.4692 Y14.6838 
G01 X-8.6197 Y14.7843 
G01 X-8.7870 Y14.8536 
G01 X-8.9645 Y14.8889 
G01 X-9.2411 Y14.8889 
G01 X-9.2411 Y16.6005 
G01 X-9.2764 Y16.7780 
G01 X-9.3457 Y16.9453 
G01 X-9.4462 Y17.0958 
G01 X-9.5742 Y17.2238 
G01 X-9.7247 Y17.3243 
G01 X-9.8920 Y17.3936 
G01 X-10.0695 Y17.4289 
G01 X-18.9889 Y17.4289 
G01 X-19.0169 Y17.5333 
G01 X-19.0844 Y17.6502 
G01 X-19.1798 Y17.7456 
G01 X-19.2967 Y17.8131 
G01 X-19.4270 Y17.8480 
G01 X-21.2130 Y17.8480 
G01 X-21.3433 Y17.8131 
G01 X-21.4602 Y17.7456 
G01 X-21.5556 Y17.6502 
G01 X-21.6231 Y17.5333 
G01 X-21.6580 Y17.4030 
G01 X-21.6580 Y15.6170 
G01 X-21.6231 Y15.4867 
G01 X-21.5556 Y15.3698 
G01 X-21.4602 Y15.2744 
G01 X-21.3433 Y15.2069 
G01 X-21.2130 Y15.1720 
G01 X-20.9081 Y15.1720 
G01 X-21.0213 Y15.1144 
G01 X-21.1916 Y14.9906 
G01 X-21.3406 Y14.8416 
G01 X-21.4644 Y14.6713 
G01 X-21.5600 Y14.4836 
G01 X-21.6251 Y14.2833 
G01 X-21.6580 Y14.0753 
G01 X-21.6580 Y13.8647 
G01 X-21.6251 Y13.6567 
G01 X-21.5600 Y13.4564 
G01 X-21.4644 Y13.2687 
G01 X-21.3406 Y13.0983 
G01 X-21.1916 Y12.9494 
G01 X-21.0213 Y12.8256 
G01 X-20.8336 Y12.7300 
G01 X-20.7412 Y12.7000 
G01 X-20.8336 Y12.6700 
G01 X-21.0213 Y12.5744 
G01 X-21.1916 Y12.4506 
G01 X-21.2933 Y12.3489 
G01 X-21.9411 Y12.3489 
G01 X-21.9411 Y18.1311 
G01 X-4.7289 Y18.1311 
G01 X-4.7289 Y11.7139 
G00 Z5.0000 
G00 X-10.9332 Y13.4732 
G01 Z-0.0800 F300.00 
G01 X-10.9947 Y13.5143 F400.00 
G01 X-11.1620 Y13.5836 
G01 X-11.3395 Y13.6189 
G01 X-13.0511 Y13.6189 
G01 X-13.0511 Y13.8795 
G01 X-13.0511 Y14.0605 
G01 X-13.0864 Y14.2380 
G01 X-13.1557 Y14.4053 
G01 X-13.2562 Y14.5558 
G01 X-13.3842 Y14.6838 
G01 X-13.5347 Y14.7843 
G01 X-13.7020 Y14.8536 
G01 X-13.8795 Y14.8889 
G01 X-19.3467 Y14.8889 
G01 X-19.4484 Y14.9906 
G01 X-19.6187 Y15.1144 
G01 X-19.7319 Y15.1720 
G01 X-19.4270 Y15.1720 
G01 X-19.2967 Y15.2069 
G01 X-19.1798 Y15.2744 
G01 X-19.0844 Y15.3698 
G01 X-19.0169 Y15.4867 
G01 X-18.9889 Y15.5911 
G01 X-11.0789 Y15.5911 
G01 X-11.0789 Y13.8795 
G01 X-11.0436 Y13.7020 
G01 X-10.9743 Y13.5347 
G01 X-10.9332 Y13.4732 
G00 Z5.0000 
G00 X-12.8575 Y11.7811 
G01 Z-0.0800 F300.00 
G01 X-12.8575 Y11.5906 F400.00 
G01 X-12.8264 Y11.3944 
G01 X-12.7650 Y11.2054 
G01 X-12.6748 Y11.0283 
G01 X-12.5580 Y10.8675 
G01 X-12.4175 Y10.7270 
G01 X-12.3390 Y10.6700 
G01 X-12.4175 Y10.6130 
G01 X-12.4615 Y10.5689 
G01 X-14.0605 Y10.5689 
G01 X-14.2380 Y10.5336 
G01 X-14.4053 Y10.4643 
G01 X-14.5558 Y10.3638 
G01 X-14.6838 Y10.2358 
G01 X-14.7843 Y10.0853 
G01 X-14.8536 Y9.9180 
G01 X-14.8753 Y9.8089 
G01 X-19.3467 Y9.8089 
G01 X-19.4484 Y9.9106 
G01 X-19.6187 Y10.0344 
G01 X-19.8064 Y10.1300 
G01 X-19.8988 Y10.1600 
G01 X-19.8064 Y10.1900 
G01 X-19.6187 Y10.2856 
G01 X-19.4484 Y10.4094 
G01 X-19.2994 Y10.5584 
G01 X-19.1756 Y10.7287 
G01 X-19.0800 Y10.9164 
G01 X-19.0149 Y11.1167 
G01 X-18.9820 Y11.3247 
G01 X-18.9820 Y11.5353 
G01 X-19.0149 Y11.7433 
G01 X-19.0800 Y11.9436 
G01 X-19.1756 Y12.1313 
G01 X-19.2994 Y12.3016 
G01 X-19.4484 Y12.4506 
G01 X-19.6187 Y12.5744 
G01 X-19.8064 Y12.6700 
G01 X-19.8988 Y12.7000 
G01 X-19.8064 Y12.7300 
G01 X-19.6187 Y12.8256 
G01 X-19.4484 Y12.9494 
G01 X-19.3467 Y13.0511 
G01 X-14.8889 Y13.0511 
G01 X-14.8889 Y12.6095 
G01 X-14.8536 Y12.4320 
G01 X-14.7843 Y12.2647 
G01 X-14.6838 Y12.1142 
G01 X-14.5558 Y11.9862 
G01 X-14.4053 Y11.8857 
G01 X-14.2380 Y11.8164 
G01 X-14.0605 Y11.7811 
G01 X-12.8575 Y11.7811 
G00 Z5.0000 
G00 X-13.0647 Y8.7311 
G01 Z-0.0800 F300.00 
G01 X-12.4615 Y8.7311 F400.00 
G01 X-12.4175 Y8.6870 
G01 X-12.3390 Y8.6300 
G01 X-12.4175 Y8.5730 
G01 X-12.5580 Y8.4325 
G01 X-12.6748 Y8.2717 
G01 X-12.7650 Y8.0946 
G01 X-12.8264 Y7.9056 
G01 X-12.8575 Y7.7094 
G01 X-12.8575 Y7.5106 
G01 X-12.8264 Y7.3144 
G01 X-12.7650 Y7.1254 
G01 X-12.6748 Y6.9483 
G01 X-12.5580 Y6.7875 
G01 X-12.4175 Y6.6470 
G01 X-12.3489 Y6.5972 
G01 X-12.3489 Y5.9989 
G01 X-14.0605 Y5.9989 
G01 X-14.2380 Y5.9636 
G01 X-14.4053 Y5.8943 
G01 X-14.5558 Y5.7938 
G01 X-14.6838 Y5.6658 
G01 X-14.7843 Y5.5153 
G01 X-14.8536 Y5.3480 
G01 X-14.8889 Y5.1705 
G01 X-14.8889 Y4.7289 
G01 X-19.3467 Y4.7289 
G01 X-19.4484 Y4.8306 
G01 X-19.6187 Y4.9544 
G01 X-19.8064 Y5.0500 
G01 X-19.8988 Y5.0800 
G01 X-19.8064 Y5.1100 
G01 X-19.6187 Y5.2056 
G01 X-19.4484 Y5.3294 
G01 X-19.2994 Y5.4783 
G01 X-19.1756 Y5.6487 
G01 X-19.0800 Y5.8364 
G01 X-19.0149 Y6.0367 
G01 X-18.9820 Y6.2447 
G01 X-18.9820 Y6.4553 
G01 X-19.0149 Y6.6633 
G01 X-19.0800 Y6.8636 
G01 X-19.1756 Y7.0513 
G01 X-19.2994 Y7.2216 
G01 X-19.4484 Y7.3706 
G01 X-19.6187 Y7.4944 
G01 X-19.8064 Y7.5900 
G01 X-19.8988 Y7.6200 
G01 X-19.8064 Y7.6500 
G01 X-19.6187 Y7.7456 
G01 X-19.4484 Y7.8694 
G01 X-19.3467 Y7.9711 
G01 X-13.8795 Y7.9711 
G01 X-13.7020 Y8.0064 
G01 X-13.5347 Y8.0757 
G01 X-13.3842 Y8.1762 
G01 X-13.2562 Y8.3042 
G01 X-13.1557 Y8.4547 
G01 X-13.0864 Y8.6220 
G01 X-13.0647 Y8.7311 
G00 Z5.0000 
G00 X-3.0574 Y0.6524 
G01 Z-0.0800 F300.00 
G01 X-2.9514 Y0.8111 F400.00 
G01 X-2.8783 Y0.9874 
G01 X-2.8411 Y1.1746 
G01 X-2.8411 Y8.7254 
G01 X-2.8783 Y8.9126 
G01 X-2.9514 Y9.0889 
G01 X-3.0574 Y9.2476 
G01 X-3.1924 Y9.3826 
G01 X-3.3511 Y9.4886 
G01 X-3.5274 Y9.5617 
G01 X-3.7146 Y9.5989 
G01 X-8.1677 Y9.5989 
G01 X-8.2000 Y9.6311 
G01 X-8.2260 Y9.6500 
G01 X-8.2000 Y9.6689 
G01 X-8.0539 Y9.8150 
G01 X-8.0458 Y9.8261 
G01 X-3.7146 Y9.8261 
G01 X-3.5274 Y9.8633 
G01 X-3.3511 Y9.9364 
G01 X-3.1924 Y10.0424 
G01 X-3.0574 Y10.1774 
G01 X-2.9514 Y10.3361 
G01 X-2.8783 Y10.5124 
G01 X-2.8411 Y10.6996 
G01 X-2.8411 Y19.1454 
G01 X-2.8783 Y19.3326 
G01 X-2.9514 Y19.5089 
G01 X-3.0574 Y19.6676 
G01 X-3.1924 Y19.8026 
G01 X-3.3511 Y19.9086 
G01 X-3.5274 Y19.9817 
G01 X-3.7146 Y20.0189 
G01 X-22.9554 Y20.0189 
G01 X-23.1426 Y19.9817 
G01 X-23.3189 Y19.9086 
G01 X-23.4776 Y19.8026 
G01 X-23.6126 Y19.6676 
G01 X-23.7186 Y19.5089 
G01 X-23.7917 Y19.3326 
G01 X-23.8289 Y19.1454 
G01 X-23.8289 Y11.3346 
G01 X-23.7917 Y11.1474 
G01 X-23.7186 Y10.9711 
G01 X-23.6126 Y10.8124 
G01 X-23.4776 Y10.6774 
G01 X-23.3189 Y10.5714 
G01 X-23.1426 Y10.4983 
G01 X-22.9554 Y10.4611 
G01 X-21.3140 Y10.4611 
G01 X-21.2242 Y10.3713 
G01 X-21.0475 Y10.2429 
G01 X-20.8848 Y10.1600 
G01 X-21.0475 Y10.0771 
G01 X-21.2242 Y9.9487 
G01 X-21.3787 Y9.7942 
G01 X-21.5071 Y9.6175 
G01 X-21.6063 Y9.4228 
G01 X-21.6738 Y9.2150 
G01 X-21.7080 Y8.9992 
G01 X-21.7080 Y8.7808 
