(.../Documents/pcbgcode/pcb-gcode.ulp)
(Copyright 2005 - 2012 by John Johnson)
(See readme.txt for licensing terms.)
(This file generated from the board:)
(.../RJ12 breakout/rj12 breakout.brd)
(Current profile is .../pcbgcode/profiles/generic.pp  )
(This file generated 17/06/2018 17:16)
(Settings from pcb-machine.h)
(spindle on time = 3.0000)
(spindle speed = 15000.0000)
(milling depth = -1.9000)
(tool change at 0.0000 0.0000 40.0000 )
(feed rate xy = F300.00 )
(feed rate z  = F300.00 )
(Z Axis Settings)
(  High     Up        Down     Drill)
(25.0000 	5.0000 	-0.0800 	-1.7500 )
(Settings from pcb-defaults.h)
(isolate min = 0.1000)
(isolate max = 0.5000)
(isolate step = 0.0500)
(Generated bottom outlines, bottom drill, )
(Unit of measure: mm)
(Metric Mode)
G21
(Absolute Coordinates)
G90
S15000
G00 Z25.0000 
G00 X0.0000 Y0.0000 
M03
G04 P3.000000
G00 Z5.0000 
G00 X0.6350 Y-0.6350 
G01 Z-1.9000 F300.00 
G01 X-10.1600 Y-0.6350 F300.00 
G00 Z5.0000 
G00 X-12.7000 Y-0.6350 
G01 Z-1.9000 F300.00 
G01 X-24.7650 Y-0.6350 F300.00 
G01 X-24.7650 Y8.8900 
G00 Z5.0000 
G00 X-24.7650 Y11.4300 
G01 Z-1.9000 F300.00 
G01 X-24.7650 Y20.9550 F300.00 
G01 X-12.7000 Y20.9550 
G00 Z5.0000 
G00 X-10.1600 Y20.9550 
G01 Z-1.9000 F300.00 
G01 X0.6350 Y20.9550 F300.00 
G01 X0.6350 Y11.4300 
G00 Z5.0000 
G00 X0.6350 Y8.8900 
G01 Z-1.9000 F300.00 
G01 X0.6350 Y-0.6350 F300.00 
G00 Z25.0000 
M05
M02
