(.../Documents/pcbgcode/pcb-gcode.ulp)
(Copyright 2005 - 2012 by John Johnson)
(See readme.txt for licensing terms.)
(This file generated from the board:)
(.../RJ12 breakout/rj12 breakout.brd)
(Current profile is .../pcbgcode/profiles/generic.pp  )
(This file generated 17/06/2018 17:16)
(Settings from pcb-machine.h)
(spindle on time = 3.0000)
(spindle speed = 20000.0000)
(tool change at 0.0000 0.0000 40.0000 )
(feed rate xy = F0.00  )
(feed rate z  = F250.00 )
(Z Axis Settings)
(  High     Up        Down     Drill)
(25.0000 	5.0000 	-0.0800 	-1.7500 )
(Settings from pcb-defaults.h)
(isolate min = 0.1000)
(isolate max = 0.5000)
(isolate step = 0.0500)
(Generated bottom outlines, bottom drill, )
(Unit of measure: mm)
( Tool|       Size       |  Min Sub |  Max Sub |   Count )
( T03  0.800mm 0.0315in 0.0315in 0.0350in )
( T07  3.200mm 0.1260in 0.0929in 0.1260in )
(Metric Mode)
G21
(Absolute Coordinates)
G90
S20000
G00 Z25.0000 
G00 X0.0000 Y0.0000 
M03
G04 P3.000000
M05
G00 Z40.0000 
M06 T03  ; 0.8000 
G00 Z5.0000 
M03
G04 P3.000000
G00 X-9.0550 Y8.6300 
G01 Z-1.7500 F250.00 
G00 Z5.0000 
G00 X-9.0550 Y10.6700 
G01 Z-1.7500 F250.00 
G00 Z5.0000 
G00 X-9.0550 Y12.7100 
G01 Z-1.7500 F250.00 
G00 Z5.0000 
G00 X-11.5950 Y11.6900 
G01 Z-1.7500 F250.00 
G00 Z5.0000 
G00 X-11.5950 Y9.6500 
G01 Z-1.7500 F250.00 
G00 Z5.0000 
G00 X-11.5950 Y7.6100 
G01 Z-1.7500 F250.00 
G00 Z5.0000 
G00 X-20.3200 Y6.3500 
G01 Z-1.7500 F250.00 
G00 Z5.0000 
G00 X-20.3200 Y8.8900 
G01 Z-1.7500 F250.00 
G00 Z5.0000 
G00 X-20.3200 Y11.4300 
G01 Z-1.7500 F250.00 
G00 Z5.0000 
G00 X-20.3200 Y13.9700 
G01 Z-1.7500 F250.00 
G00 Z5.0000 
G00 X-20.3200 Y16.5100 
G01 Z-1.7500 F250.00 
G00 Z5.0000 
G00 X-20.3200 Y3.8100 
G01 Z-1.7500 F250.00 
G00 Z5.0000 
M05
G00 Z40.0000 
G00 X0.0000 Y0.0000 
M06 T07  ; 3.2000 
G00 Z5.0000 
M03
G04 P3.000000
G00 X-6.7550 Y4.1600 
G01 Z-1.7500 F250.00 
G00 Z5.0000 
G00 X-6.7550 Y16.1600 
G01 Z-1.7500 F250.00 
G00 Z5.0000 
T01 
G00 Z25.0000 
M05
M02
